Apps/PeekLUT/Resources/SampleLUTs/Cool.cube
TITLE "Cool 17"
LUT_3D_SIZE 17
DOMAIN_MIN 0.0 0.0 0.0
DOMAIN_MAX 1.0 1.0 1.0
0.000000 0.000000 0.020000
0.057500 0.000000 0.020000
0.115000 0.000000 0.020000
0.172500 0.000000 0.020000
0.230000 0.000000 0.020000
0.287500 0.000000 0.020000
0.345000 0.000000 0.020000
0.402500 0.000000 0.020000
0.460000 0.000000 0.020000
0.517500 0.000000 0.020000
0.575000 0.000000 0.020000
0.632500 0.000000 0.020000
0.690000 0.000000 0.020000
0.747500 0.000000 0.020000
0.805000 0.000000 0.020000
0.862500 0.000000 0.020000
0.920000 0.000000 0.020000
0.000000 0.063750 0.020000
0.057500 0.063750 0.020000
0.115000 0.063750 0.020000
0.172500 0.063750 0.020000
0.230000 0.063750 0.020000
0.287500 0.063750 0.020000
0.345000 0.063750 0.020000
0.402500 0.063750 0.020000
0.460000 0.063750 0.020000
0.517500 0.063750 0.020000
0.575000 0.063750 0.020000
0.632500 0.063750 0.020000
0.690000 0.063750 0.020000
0.747500 0.063750 0.020000
0.805000 0.063750 0.020000
0.862500 0.063750 0.020000
0.920000 0.063750 0.020000
0.000000 0.127500 0.020000
0.057500 0.127500 0.020000
0.115000 0.127500 0.020000
0.172500 0.127500 0.020000
0.230000 0.127500 0.020000
0.287500 0.127500 0.020000
0.345000 0.127500 0.020000
0.402500 0.127500 0.020000
0.460000 0.127500 0.020000
0.517500 0.127500 0.020000
0.575000 0.127500 0.020000
0.632500 0.127500 0.020000
0.690000 0.127500 0.020000
0.747500 0.127500 0.020000
0.805000 0.127500 0.020000
0.862500 0.127500 0.020000
0.920000 0.127500 0.020000
0.000000 0.191250 0.020000
0.057500 0.191250 0.020000
0.115000 0.191250 0.020000
0.172500 0.191250 0.020000
0.230000 0.191250 0.020000
0.287500 0.191250 0.020000
0.345000 0.191250 0.020000
0.402500 0.191250 0.020000
0.460000 0.191250 0.020000
0.517500 0.191250 0.020000
0.575000 0.191250 0.020000
0.632500 0.191250 0.020000
0.690000 0.191250 0.020000
0.747500 0.191250 0.020000
0.805000 0.191250 0.020000
0.862500 0.191250 0.020000
0.920000 0.191250 0.020000
0.000000 0.255000 0.020000
0.057500 0.255000 0.020000
0.115000 0.255000 0.020000
0.172500 0.255000 0.020000
0.230000 0.255000 0.020000
0.287500 0.255000 0.020000
0.345000 0.255000 0.020000
0.402500 0.255000 0.020000
0.460000 0.255000 0.020000
0.517500 0.255000 0.020000
0.575000 0.255000 0.020000
0.632500 0.255000 0.020000
0.690000 0.255000 0.020000
0.747500 0.255000 0.020000
0.805000 0.255000 0.020000
0.862500 0.255000 0.020000
0.920000 0.255000 0.020000
0.000000 0.318750 0.020000
0.057500 0.318750 0.020000
0.115000 0.318750 0.020000
0.172500 0.318750 0.020000
0.230000 0.318750 0.020000
0.287500 0.318750 0.020000
0.345000 0.318750 0.020000
0.402500 0.318750 0.020000
0.460000 0.318750 0.020000
0.517500 0.318750 0.020000
0.575000 0.318750 0.020000
0.632500 0.318750 0.020000
0.690000 0.318750 0.020000
0.747500 0.318750 0.020000
0.805000 0.318750 0.020000
0.862500 0.318750 0.020000
0.920000 0.318750 0.020000
0.000000 0.382500 0.020000
0.057500 0.382500 0.020000
0.115000 0.382500 0.020000
0.172500 0.382500 0.020000
0.230000 0.382500 0.020000
0.287500 0.382500 0.020000
0.345000 0.382500 0.020000
0.402500 0.382500 0.020000
0.460000 0.382500 0.020000
0.517500 0.382500 0.020000
0.575000 0.382500 0.020000
0.632500 0.382500 0.020000
0.690000 0.382500 0.020000
0.747500 0.382500 0.020000
0.805000 0.382500 0.020000
0.862500 0.382500 0.020000
0.920000 0.382500 0.020000
0.000000 0.446250 0.020000
0.057500 0.446250 0.020000
0.115000 0.446250 0.020000
0.172500 0.446250 0.020000
0.230000 0.446250 0.020000
0.287500 0.446250 0.020000
0.345000 0.446250 0.020000
0.402500 0.446250 0.020000
0.460000 0.446250 0.020000
0.517500 0.446250 0.020000
0.575000 0.446250 0.020000
0.632500 0.446250 0.020000
0.690000 0.446250 0.020000
0.747500 0.446250 0.020000
0.805000 0.446250 0.020000
0.862500 0.446250 0.020000
0.920000 0.446250 0.020000
0.000000 0.510000 0.020000
0.057500 0.510000 0.020000
0.115000 0.510000 0.020000
0.172500 0.510000 0.020000
0.230000 0.510000 0.020000
0.287500 0.510000 0.020000
0.345000 0.510000 0.020000
0.402500 0.510000 0.020000
0.460000 0.510000 0.020000
0.517500 0.510000 0.020000
0.575000 0.510000 0.020000
0.632500 0.510000 0.020000
0.690000 0.510000 0.020000
0.747500 0.510000 0.020000
0.805000 0.510000 0.020000
0.862500 0.510000 0.020000
0.920000 0.510000 0.020000
0.000000 0.573750 0.020000
0.057500 0.573750 0.020000
0.115000 0.573750 0.020000
0.172500 0.573750 0.020000
0.230000 0.573750 0.020000
0.287500 0.573750 0.020000
0.345000 0.573750 0.020000
0.402500 0.573750 0.020000
0.460000 0.573750 0.020000
0.517500 0.573750 0.020000
0.575000 0.573750 0.020000
0.632500 0.573750 0.020000
0.690000 0.573750 0.020000
0.747500 0.573750 0.020000
0.805000 0.573750 0.020000
0.862500 0.573750 0.020000
0.920000 0.573750 0.020000
0.000000 0.637500 0.020000
0.057500 0.637500 0.020000
0.115000 0.637500 0.020000
0.172500 0.637500 0.020000
0.230000 0.637500 0.020000
0.287500 0.637500 0.020000
0.345000 0.637500 0.020000
0.402500 0.637500 0.020000
0.460000 0.637500 0.020000
0.517500 0.637500 0.020000
0.575000 0.637500 0.020000
0.632500 0.637500 0.020000
0.690000 0.637500 0.020000
0.747500 0.637500 0.020000
0.805000 0.637500 0.020000
0.862500 0.637500 0.020000
0.920000 0.637500 0.020000
0.000000 0.701250 0.020000
0.057500 0.701250 0.020000
0.115000 0.701250 0.020000
0.172500 0.701250 0.020000
0.230000 0.701250 0.020000
0.287500 0.701250 0.020000
0.345000 0.701250 0.020000
0.402500 0.701250 0.020000
0.460000 0.701250 0.020000
0.517500 0.701250 0.020000
0.575000 0.701250 0.020000
0.632500 0.701250 0.020000
0.690000 0.701250 0.020000
0.747500 0.701250 0.020000
0.805000 0.701250 0.020000
0.862500 0.701250 0.020000
0.920000 0.701250 0.020000
0.000000 0.765000 0.020000
0.057500 0.765000 0.020000
0.115000 0.765000 0.020000
0.172500 0.765000 0.020000
0.230000 0.765000 0.020000
0.287500 0.765000 0.020000
0.345000 0.765000 0.020000
0.402500 0.765000 0.020000
0.460000 0.765000 0.020000
0.517500 0.765000 0.020000
0.575000 0.765000 0.020000
0.632500 0.765000 0.020000
0.690000 0.765000 0.020000
0.747500 0.765000 0.020000
0.805000 0.765000 0.020000
0.862500 0.765000 0.020000
0.920000 0.765000 0.020000
0.000000 0.828750 0.020000
0.057500 0.828750 0.020000
0.115000 0.828750 0.020000
0.172500 0.828750 0.020000
0.230000 0.828750 0.020000
0.287500 0.828750 0.020000
0.345000 0.828750 0.020000
0.402500 0.828750 0.020000
0.460000 0.828750 0.020000
0.517500 0.828750 0.020000
0.575000 0.828750 0.020000
0.632500 0.828750 0.020000
0.690000 0.828750 0.020000
0.747500 0.828750 0.020000
0.805000 0.828750 0.020000
0.862500 0.828750 0.020000
0.920000 0.828750 0.020000
0.000000 0.892500 0.020000
0.057500 0.892500 0.020000
0.115000 0.892500 0.020000
0.172500 0.892500 0.020000
0.230000 0.892500 0.020000
0.287500 0.892500 0.020000
0.345000 0.892500 0.020000
0.402500 0.892500 0.020000
0.460000 0.892500 0.020000
0.517500 0.892500 0.020000
0.575000 0.892500 0.020000
0.632500 0.892500 0.020000
0.690000 0.892500 0.020000
0.747500 0.892500 0.020000
0.805000 0.892500 0.020000
0.862500 0.892500 0.020000
0.920000 0.892500 0.020000
0.000000 0.956250 0.020000
0.057500 0.956250 0.020000
0.115000 0.956250 0.020000
0.172500 0.956250 0.020000
0.230000 0.956250 0.020000
0.287500 0.956250 0.020000
0.345000 0.956250 0.020000
0.402500 0.956250 0.020000
0.460000 0.956250 0.020000
0.517500 0.956250 0.020000
0.575000 0.956250 0.020000
0.632500 0.956250 0.020000
0.690000 0.956250 0.020000
0.747500 0.956250 0.020000
0.805000 0.956250 0.020000
0.862500 0.956250 0.020000
0.920000 0.956250 0.020000
0.000000 1.000000 0.020000
0.057500 1.000000 0.020000
0.115000 1.000000 0.020000
0.172500 1.000000 0.020000
0.230000 1.000000 0.020000
0.287500 1.000000 0.020000
0.345000 1.000000 0.020000
0.402500 1.000000 0.020000
0.460000 1.000000 0.020000
0.517500 1.000000 0.020000
0.575000 1.000000 0.020000
0.632500 1.000000 0.020000
0.690000 1.000000 0.020000
0.747500 1.000000 0.020000
0.805000 1.000000 0.020000
0.862500 1.000000 0.020000
0.920000 1.000000 0.020000
0.000000 0.000000 0.087500
0.057500 0.000000 0.087500
0.115000 0.000000 0.087500
0.172500 0.000000 0.087500
0.230000 0.000000 0.087500
0.287500 0.000000 0.087500
0.345000 0.000000 0.087500
0.402500 0.000000 0.087500
0.460000 0.000000 0.087500
0.517500 0.000000 0.087500
0.575000 0.000000 0.087500
0.632500 0.000000 0.087500
0.690000 0.000000 0.087500
0.747500 0.000000 0.087500
0.805000 0.000000 0.087500
0.862500 0.000000 0.087500
0.920000 0.000000 0.087500
0.000000 0.063750 0.087500
0.057500 0.063750 0.087500
0.115000 0.063750 0.087500
0.172500 0.063750 0.087500
0.230000 0.063750 0.087500
0.287500 0.063750 0.087500
0.345000 0.063750 0.087500
0.402500 0.063750 0.087500
0.460000 0.063750 0.087500
0.517500 0.063750 0.087500
0.575000 0.063750 0.087500
0.632500 0.063750 0.087500
0.690000 0.063750 0.087500
0.747500 0.063750 0.087500
0.805000 0.063750 0.087500
0.862500 0.063750 0.087500
0.920000 0.063750 0.087500
0.000000 0.127500 0.087500
0.057500 0.127500 0.087500
0.115000 0.127500 0.087500
0.172500 0.127500 0.087500
0.230000 0.127500 0.087500
0.287500 0.127500 0.087500
0.345000 0.127500 0.087500
0.402500 0.127500 0.087500
0.460000 0.127500 0.087500
0.517500 0.127500 0.087500
0.575000 0.127500 0.087500
0.632500 0.127500 0.087500
0.690000 0.127500 0.087500
0.747500 0.127500 0.087500
0.805000 0.127500 0.087500
0.862500 0.127500 0.087500
0.920000 0.127500 0.087500
0.000000 0.191250 0.087500
0.057500 0.191250 0.087500
0.115000 0.191250 0.087500
0.172500 0.191250 0.087500
0.230000 0.191250 0.087500
0.287500 0.191250 0.087500
0.345000 0.191250 0.087500
0.402500 0.191250 0.087500
0.460000 0.191250 0.087500
0.517500 0.191250 0.087500
0.575000 0.191250 0.087500
0.632500 0.191250 0.087500
0.690000 0.191250 0.087500
0.747500 0.191250 0.087500
0.805000 0.191250 0.087500
0.862500 0.191250 0.087500
0.920000 0.191250 0.087500
0.000000 0.255000 0.087500
0.057500 0.255000 0.087500
0.115000 0.255000 0.087500
0.172500 0.255000 0.087500
0.230000 0.255000 0.087500
0.287500 0.255000 0.087500
0.345000 0.255000 0.087500
0.402500 0.255000 0.087500
0.460000 0.255000 0.087500
0.517500 0.255000 0.087500
0.575000 0.255000 0.087500
0.632500 0.255000 0.087500
0.690000 0.255000 0.087500
0.747500 0.255000 0.087500
0.805000 0.255000 0.087500
0.862500 0.255000 0.087500
0.920000 0.255000 0.087500
0.000000 0.318750 0.087500
0.057500 0.318750 0.087500
0.115000 0.318750 0.087500
0.172500 0.318750 0.087500
0.230000 0.318750 0.087500
0.287500 0.318750 0.087500
0.345000 0.318750 0.087500
0.402500 0.318750 0.087500
0.460000 0.318750 0.087500
0.517500 0.318750 0.087500
0.575000 0.318750 0.087500
0.632500 0.318750 0.087500
0.690000 0.318750 0.087500
0.747500 0.318750 0.087500
0.805000 0.318750 0.087500
0.862500 0.318750 0.087500
0.920000 0.318750 0.087500
0.000000 0.382500 0.087500
0.057500 0.382500 0.087500
0.115000 0.382500 0.087500
0.172500 0.382500 0.087500
0.230000 0.382500 0.087500
0.287500 0.382500 0.087500
0.345000 0.382500 0.087500
0.402500 0.382500 0.087500
0.460000 0.382500 0.087500
0.517500 0.382500 0.087500
0.575000 0.382500 0.087500
0.632500 0.382500 0.087500
0.690000 0.382500 0.087500
0.747500 0.382500 0.087500
0.805000 0.382500 0.087500
0.862500 0.382500 0.087500
0.920000 0.382500 0.087500
0.000000 0.446250 0.087500
0.057500 0.446250 0.087500
0.115000 0.446250 0.087500
0.172500 0.446250 0.087500
0.230000 0.446250 0.087500
0.287500 0.446250 0.087500
0.345000 0.446250 0.087500
0.402500 0.446250 0.087500
0.460000 0.446250 0.087500
0.517500 0.446250 0.087500
0.575000 0.446250 0.087500
0.632500 0.446250 0.087500
0.690000 0.446250 0.087500
0.747500 0.446250 0.087500
0.805000 0.446250 0.087500
0.862500 0.446250 0.087500
0.920000 0.446250 0.087500
0.000000 0.510000 0.087500
0.057500 0.510000 0.087500
0.115000 0.510000 0.087500
0.172500 0.510000 0.087500
0.230000 0.510000 0.087500
0.287500 0.510000 0.087500
0.345000 0.510000 0.087500
0.402500 0.510000 0.087500
0.460000 0.510000 0.087500
0.517500 0.510000 0.087500
0.575000 0.510000 0.087500
0.632500 0.510000 0.087500
0.690000 0.510000 0.087500
0.747500 0.510000 0.087500
0.805000 0.510000 0.087500
0.862500 0.510000 0.087500
0.920000 0.510000 0.087500
0.000000 0.573750 0.087500
0.057500 0.573750 0.087500
0.115000 0.573750 0.087500
0.172500 0.573750 0.087500
0.230000 0.573750 0.087500
0.287500 0.573750 0.087500
0.345000 0.573750 0.087500
0.402500 0.573750 0.087500
0.460000 0.573750 0.087500
0.517500 0.573750 0.087500
0.575000 0.573750 0.087500
0.632500 0.573750 0.087500
0.690000 0.573750 0.087500
0.747500 0.573750 0.087500
0.805000 0.573750 0.087500
0.862500 0.573750 0.087500
0.920000 0.573750 0.087500
0.000000 0.637500 0.087500
0.057500 0.637500 0.087500
0.115000 0.637500 0.087500
0.172500 0.637500 0.087500
0.230000 0.637500 0.087500
0.287500 0.637500 0.087500
0.345000 0.637500 0.087500
0.402500 0.637500 0.087500
0.460000 0.637500 0.087500
0.517500 0.637500 0.087500
0.575000 0.637500 0.087500
0.632500 0.637500 0.087500
0.690000 0.637500 0.087500
0.747500 0.637500 0.087500
0.805000 0.637500 0.087500
0.862500 0.637500 0.087500
0.920000 0.637500 0.087500
0.000000 0.701250 0.087500
0.057500 0.701250 0.087500
0.115000 0.701250 0.087500
0.172500 0.701250 0.087500
0.230000 0.701250 0.087500
0.287500 0.701250 0.087500
0.345000 0.701250 0.087500
0.402500 0.701250 0.087500
0.460000 0.701250 0.087500
0.517500 0.701250 0.087500
0.575000 0.701250 0.087500
0.632500 0.701250 0.087500
0.690000 0.701250 0.087500
0.747500 0.701250 0.087500
0.805000 0.701250 0.087500
0.862500 0.701250 0.087500
0.920000 0.701250 0.087500
0.000000 0.765000 0.087500
0.057500 0.765000 0.087500
0.115000 0.765000 0.087500
0.172500 0.765000 0.087500
0.230000 0.765000 0.087500
0.287500 0.765000 0.087500
0.345000 0.765000 0.087500
0.402500 0.765000 0.087500
0.460000 0.765000 0.087500
0.517500 0.765000 0.087500
0.575000 0.765000 0.087500
0.632500 0.765000 0.087500
0.690000 0.765000 0.087500
0.747500 0.765000 0.087500
0.805000 0.765000 0.087500
0.862500 0.765000 0.087500
0.920000 0.765000 0.087500
0.000000 0.828750 0.087500
0.057500 0.828750 0.087500
0.115000 0.828750 0.087500
0.172500 0.828750 0.087500
0.230000 0.828750 0.087500
0.287500 0.828750 0.087500
0.345000 0.828750 0.087500
0.402500 0.828750 0.087500
0.460000 0.828750 0.087500
0.517500 0.828750 0.087500
0.575000 0.828750 0.087500
0.632500 0.828750 0.087500
0.690000 0.828750 0.087500
0.747500 0.828750 0.087500
0.805000 0.828750 0.087500
0.862500 0.828750 0.087500
0.920000 0.828750 0.087500
0.000000 0.892500 0.087500
0.057500 0.892500 0.087500
0.115000 0.892500 0.087500
0.172500 0.892500 0.087500
0.230000 0.892500 0.087500
0.287500 0.892500 0.087500
0.345000 0.892500 0.087500
0.402500 0.892500 0.087500
0.460000 0.892500 0.087500
0.517500 0.892500 0.087500
0.575000 0.892500 0.087500
0.632500 0.892500 0.087500
0.690000 0.892500 0.087500
0.747500 0.892500 0.087500
0.805000 0.892500 0.087500
0.862500 0.892500 0.087500
0.920000 0.892500 0.087500
0.000000 0.956250 0.087500
0.057500 0.956250 0.087500
0.115000 0.956250 0.087500
0.172500 0.956250 0.087500
0.230000 0.956250 0.087500
0.287500 0.956250 0.087500
0.345000 0.956250 0.087500
0.402500 0.956250 0.087500
0.460000 0.956250 0.087500
0.517500 0.956250 0.087500
0.575000 0.956250 0.087500
0.632500 0.956250 0.087500
0.690000 0.956250 0.087500
0.747500 0.956250 0.087500
0.805000 0.956250 0.087500
0.862500 0.956250 0.087500
0.920000 0.956250 0.087500
0.000000 1.000000 0.087500
0.057500 1.000000 0.087500
0.115000 1.000000 0.087500
0.172500 1.000000 0.087500
0.230000 1.000000 0.087500
0.287500 1.000000 0.087500
0.345000 1.000000 0.087500
0.402500 1.000000 0.087500
0.460000 1.000000 0.087500
0.517500 1.000000 0.087500
0.575000 1.000000 0.087500
0.632500 1.000000 0.087500
0.690000 1.000000 0.087500
0.747500 1.000000 0.087500
0.805000 1.000000 0.087500
0.862500 1.000000 0.087500
0.920000 1.000000 0.087500
0.000000 0.000000 0.155000
0.057500 0.000000 0.155000
0.115000 0.000000 0.155000
0.172500 0.000000 0.155000
0.230000 0.000000 0.155000
0.287500 0.000000 0.155000
0.345000 0.000000 0.155000
0.402500 0.000000 0.155000
0.460000 0.000000 0.155000
0.517500 0.000000 0.155000
0.575000 0.000000 0.155000
0.632500 0.000000 0.155000
0.690000 0.000000 0.155000
0.747500 0.000000 0.155000
0.805000 0.000000 0.155000
0.862500 0.000000 0.155000
0.920000 0.000000 0.155000
0.000000 0.063750 0.155000
0.057500 0.063750 0.155000
0.115000 0.063750 0.155000
0.172500 0.063750 0.155000
0.230000 0.063750 0.155000
0.287500 0.063750 0.155000
0.345000 0.063750 0.155000
0.402500 0.063750 0.155000
0.460000 0.063750 0.155000
0.517500 0.063750 0.155000
0.575000 0.063750 0.155000
0.632500 0.063750 0.155000
0.690000 0.063750 0.155000
0.747500 0.063750 0.155000
0.805000 0.063750 0.155000
0.862500 0.063750 0.155000
0.920000 0.063750 0.155000
0.000000 0.127500 0.155000
0.057500 0.127500 0.155000
0.115000 0.127500 0.155000
0.172500 0.127500 0.155000
0.230000 0.127500 0.155000
0.287500 0.127500 0.155000
0.345000 0.127500 0.155000
0.402500 0.127500 0.155000
0.460000 0.127500 0.155000
0.517500 0.127500 0.155000
0.575000 0.127500 0.155000
0.632500 0.127500 0.155000
0.690000 0.127500 0.155000
0.747500 0.127500 0.155000
0.805000 0.127500 0.155000
0.862500 0.127500 0.155000
0.920000 0.127500 0.155000
0.000000 0.191250 0.155000
0.057500 0.191250 0.155000
0.115000 0.191250 0.155000
0.172500 0.191250 0.155000
0.230000 0.191250 0.155000
0.287500 0.191250 0.155000
0.345000 0.191250 0.155000
0.402500 0.191250 0.155000
0.460000 0.191250 0.155000
0.517500 0.191250 0.155000
0.575000 0.191250 0.155000
0.632500 0.191250 0.155000
0.690000 0.191250 0.155000
0.747500 0.191250 0.155000
0.805000 0.191250 0.155000
0.862500 0.191250 0.155000
0.920000 0.191250 0.155000
0.000000 0.255000 0.155000
0.057500 0.255000 0.155000
0.115000 0.255000 0.155000
0.172500 0.255000 0.155000
0.230000 0.255000 0.155000
0.287500 0.255000 0.155000
0.345000 0.255000 0.155000
0.402500 0.255000 0.155000
0.460000 0.255000 0.155000
0.517500 0.255000 0.155000
0.575000 0.255000 0.155000
0.632500 0.255000 0.155000
0.690000 0.255000 0.155000
0.747500 0.255000 0.155000
0.805000 0.255000 0.155000
0.862500 0.255000 0.155000
0.920000 0.255000 0.155000
0.000000 0.318750 0.155000
0.057500 0.318750 0.155000
0.115000 0.318750 0.155000
0.172500 0.318750 0.155000
0.230000 0.318750 0.155000
0.287500 0.318750 0.155000
0.345000 0.318750 0.155000
0.402500 0.318750 0.155000
0.460000 0.318750 0.155000
0.517500 0.318750 0.155000
0.575000 0.318750 0.155000
0.632500 0.318750 0.155000
0.690000 0.318750 0.155000
0.747500 0.318750 0.155000
0.805000 0.318750 0.155000
0.862500 0.318750 0.155000
0.920000 0.318750 0.155000
0.000000 0.382500 0.155000
0.057500 0.382500 0.155000
0.115000 0.382500 0.155000
0.172500 0.382500 0.155000
0.230000 0.382500 0.155000
0.287500 0.382500 0.155000
0.345000 0.382500 0.155000
0.402500 0.382500 0.155000
0.460000 0.382500 0.155000
0.517500 0.382500 0.155000
0.575000 0.382500 0.155000
0.632500 0.382500 0.155000
0.690000 0.382500 0.155000
0.747500 0.382500 0.155000
0.805000 0.382500 0.155000
0.862500 0.382500 0.155000
0.920000 0.382500 0.155000
0.000000 0.446250 0.155000
0.057500 0.446250 0.155000
0.115000 0.446250 0.155000
0.172500 0.446250 0.155000
0.230000 0.446250 0.155000
0.287500 0.446250 0.155000
0.345000 0.446250 0.155000
0.402500 0.446250 0.155000
0.460000 0.446250 0.155000
0.517500 0.446250 0.155000
0.575000 0.446250 0.155000
0.632500 0.446250 0.155000
0.690000 0.446250 0.155000
0.747500 0.446250 0.155000
0.805000 0.446250 0.155000
0.862500 0.446250 0.155000
0.920000 0.446250 0.155000
0.000000 0.510000 0.155000
0.057500 0.510000 0.155000
0.115000 0.510000 0.155000
0.172500 0.510000 0.155000
0.230000 0.510000 0.155000
0.287500 0.510000 0.155000
0.345000 0.510000 0.155000
0.402500 0.510000 0.155000
0.460000 0.510000 0.155000
0.517500 0.510000 0.155000
0.575000 0.510000 0.155000
0.632500 0.510000 0.155000
0.690000 0.510000 0.155000
0.747500 0.510000 0.155000
0.805000 0.510000 0.155000
0.862500 0.510000 0.155000
0.920000 0.510000 0.155000
0.000000 0.573750 0.155000
0.057500 0.573750 0.155000
0.115000 0.573750 0.155000
0.172500 0.573750 0.155000
0.230000 0.573750 0.155000
0.287500 0.573750 0.155000
0.345000 0.573750 0.155000
0.402500 0.573750 0.155000
0.460000 0.573750 0.155000
0.517500 0.573750 0.155000
0.575000 0.573750 0.155000
0.632500 0.573750 0.155000
0.690000 0.573750 0.155000
0.747500 0.573750 0.155000
0.805000 0.573750 0.155000
0.862500 0.573750 0.155000
0.920000 0.573750 0.155000
0.000000 0.637500 0.155000
0.057500 0.637500 0.155000
0.115000 0.637500 0.155000
0.172500 0.637500 0.155000
0.230000 0.637500 0.155000
0.287500 0.637500 0.155000
0.345000 0.637500 0.155000
0.402500 0.637500 0.155000
0.460000 0.637500 0.155000
0.517500 0.637500 0.155000
0.575000 0.637500 0.155000
0.632500 0.637500 0.155000
0.690000 0.637500 0.155000
0.747500 0.637500 0.155000
0.805000 0.637500 0.155000
0.862500 0.637500 0.155000
0.920000 0.637500 0.155000
0.000000 0.701250 0.155000
0.057500 0.701250 0.155000
0.115000 0.701250 0.155000
0.172500 0.701250 0.155000
0.230000 0.701250 0.155000
0.287500 0.701250 0.155000
0.345000 0.701250 0.155000
0.402500 0.701250 0.155000
0.460000 0.701250 0.155000
0.517500 0.701250 0.155000
0.575000 0.701250 0.155000
0.632500 0.701250 0.155000
0.690000 0.701250 0.155000
0.747500 0.701250 0.155000
0.805000 0.701250 0.155000
0.862500 0.701250 0.155000
0.920000 0.701250 0.155000
0.000000 0.765000 0.155000
0.057500 0.765000 0.155000
0.115000 0.765000 0.155000
0.172500 0.765000 0.155000
0.230000 0.765000 0.155000
0.287500 0.765000 0.155000
0.345000 0.765000 0.155000
0.402500 0.765000 0.155000
0.460000 0.765000 0.155000
0.517500 0.765000 0.155000
0.575000 0.765000 0.155000
0.632500 0.765000 0.155000
0.690000 0.765000 0.155000
0.747500 0.765000 0.155000
0.805000 0.765000 0.155000
0.862500 0.765000 0.155000
0.920000 0.765000 0.155000
0.000000 0.828750 0.155000
0.057500 0.828750 0.155000
0.115000 0.828750 0.155000
0.172500 0.828750 0.155000
0.230000 0.828750 0.155000
0.287500 0.828750 0.155000
0.345000 0.828750 0.155000
0.402500 0.828750 0.155000
0.460000 0.828750 0.155000
0.517500 0.828750 0.155000
0.575000 0.828750 0.155000
0.632500 0.828750 0.155000
0.690000 0.828750 0.155000
0.747500 0.828750 0.155000
0.805000 0.828750 0.155000
0.862500 0.828750 0.155000
0.920000 0.828750 0.155000
0.000000 0.892500 0.155000
0.057500 0.892500 0.155000
0.115000 0.892500 0.155000
0.172500 0.892500 0.155000
0.230000 0.892500 0.155000
0.287500 0.892500 0.155000
0.345000 0.892500 0.155000
0.402500 0.892500 0.155000
0.460000 0.892500 0.155000
0.517500 0.892500 0.155000
0.575000 0.892500 0.155000
0.632500 0.892500 0.155000
0.690000 0.892500 0.155000
0.747500 0.892500 0.155000
0.805000 0.892500 0.155000
0.862500 0.892500 0.155000
0.920000 0.892500 0.155000
0.000000 0.956250 0.155000
0.057500 0.956250 0.155000
0.115000 0.956250 0.155000
0.172500 0.956250 0.155000
0.230000 0.956250 0.155000
0.287500 0.956250 0.155000
0.345000 0.956250 0.155000
0.402500 0.956250 0.155000
0.460000 0.956250 0.155000
0.517500 0.956250 0.155000
0.575000 0.956250 0.155000
0.632500 0.956250 0.155000
0.690000 0.956250 0.155000
0.747500 0.956250 0.155000
0.805000 0.956250 0.155000
0.862500 0.956250 0.155000
0.920000 0.956250 0.155000
0.000000 1.000000 0.155000
0.057500 1.000000 0.155000
0.115000 1.000000 0.155000
0.172500 1.000000 0.155000
0.230000 1.000000 0.155000
0.287500 1.000000 0.155000
0.345000 1.000000 0.155000
0.402500 1.000000 0.155000
0.460000 1.000000 0.155000
0.517500 1.000000 0.155000
0.575000 1.000000 0.155000
0.632500 1.000000 0.155000
0.690000 1.000000 0.155000
0.747500 1.000000 0.155000
0.805000 1.000000 0.155000
0.862500 1.000000 0.155000
0.920000 1.000000 0.155000
0.000000 0.000000 0.222500
0.057500 0.000000 0.222500
0.115000 0.000000 0.222500
0.172500 0.000000 0.222500
0.230000 0.000000 0.222500
0.287500 0.000000 0.222500
0.345000 0.000000 0.222500
0.402500 0.000000 0.222500
0.460000 0.000000 0.222500
0.517500 0.000000 0.222500
0.575000 0.000000 0.222500
0.632500 0.000000 0.222500
0.690000 0.000000 0.222500
0.747500 0.000000 0.222500
0.805000 0.000000 0.222500
0.862500 0.000000 0.222500
0.920000 0.000000 0.222500
0.000000 0.063750 0.222500
0.057500 0.063750 0.222500
