Apps/PeekLUT/Resources/SampleLUTs/Cool.cube
TITLE "Cool 17"
LUT_3D_SIZE 9
DOMAIN_MIN 0.0 0.0 0.0
DOMAIN_MAX 1.0 1.0 1.0
0.000000 0.000000 0.020000
0.115000 0.000000 0.020000
0.230000 0.000000 0.020000
0.345000 0.000000 0.020000
0.460000 0.000000 0.020000
0.575000 0.000000 0.020000
0.690000 0.000000 0.020000
0.805000 0.000000 0.020000
0.920000 0.000000 0.020000
0.000000 0.127500 0.020000
0.115000 0.127500 0.020000
0.230000 0.127500 0.020000
0.345000 0.127500 0.020000
0.460000 0.127500 0.020000
0.575000 0.127500 0.020000
0.690000 0.127500 0.020000
0.805000 0.127500 0.020000
0.920000 0.127500 0.020000
0.000000 0.255000 0.020000
0.115000 0.255000 0.020000
0.230000 0.255000 0.020000
0.345000 0.255000 0.020000
0.460000 0.255000 0.020000
0.575000 0.255000 0.020000
0.690000 0.255000 0.020000
0.805000 0.255000 0.020000
0.920000 0.255000 0.020000
0.000000 0.382500 0.020000
0.115000 0.382500 0.020000
0.230000 0.382500 0.020000
0.345000 0.382500 0.020000
0.460000 0.382500 0.020000
0.575000 0.382500 0.020000
0.690000 0.382500 0.020000
0.805000 0.382500 0.020000
0.920000 0.382500 0.020000
0.000000 0.510000 0.020000
0.115000 0.510000 0.020000
0.230000 0.510000 0.020000
0.345000 0.510000 0.020000
0.460000 0.510000 0.020000
0.575000 0.510000 0.020000
0.690000 0.510000 0.020000
0.805000 0.510000 0.020000
0.920000 0.510000 0.020000
0.000000 0.637500 0.020000
0.115000 0.637500 0.020000
0.230000 0.637500 0.020000
0.345000 0.637500 0.020000
0.460000 0.637500 0.020000
0.575000 0.637500 0.020000
0.690000 0.637500 0.020000
0.805000 0.637500 0.020000
0.920000 0.637500 0.020000
0.000000 0.765000 0.020000
0.115000 0.765000 0.020000
0.230000 0.765000 0.020000
0.345000 0.765000 0.020000
0.460000 0.765000 0.020000
0.575000 0.765000 0.020000
0.690000 0.765000 0.020000
0.805000 0.765000 0.020000
0.920000 0.765000 0.020000
0.000000 0.892500 0.020000
0.115000 0.892500 0.020000
0.230000 0.892500 0.020000
0.345000 0.892500 0.020000
0.460000 0.892500 0.020000
0.575000 0.892500 0.020000
0.690000 0.892500 0.020000
0.805000 0.892500 0.020000
0.920000 0.892500 0.020000
0.000000 1.000000 0.020000
0.115000 1.000000 0.020000
0.230000 1.000000 0.020000
0.345000 1.000000 0.020000
0.460000 1.000000 0.020000
0.575000 1.000000 0.020000
0.690000 1.000000 0.020000
0.805000 1.000000 0.020000
0.920000 1.000000 0.020000
0.000000 0.000000 0.155000
0.115000 0.000000 0.155000
0.230000 0.000000 0.155000
0.345000 0.000000 0.155000
0.460000 0.000000 0.155000
0.575000 0.000000 0.155000
0.690000 0.000000 0.155000
0.805000 0.000000 0.155000
0.920000 0.000000 0.155000
0.000000 0.127500 0.155000
0.115000 0.127500 0.155000
0.230000 0.127500 0.155000
0.345000 0.127500 0.155000
0.460000 0.127500 0.155000
0.575000 0.127500 0.155000
0.690000 0.127500 0.155000
0.805000 0.127500 0.155000
0.920000 0.127500 0.155000
0.000000 0.255000 0.155000
0.115000 0.255000 0.155000
0.230000 0.255000 0.155000
0.345000 0.255000 0.155000
0.460000 0.255000 0.155000
0.575000 0.255000 0.155000
0.690000 0.255000 0.155000
0.805000 0.255000 0.155000
0.920000 0.255000 0.155000
0.000000 0.382500 0.155000
0.115000 0.382500 0.155000
0.230000 0.382500 0.155000
0.345000 0.382500 0.155000
0.460000 0.382500 0.155000
0.575000 0.382500 0.155000
0.690000 0.382500 0.155000
0.805000 0.382500 0.155000
0.920000 0.382500 0.155000
0.000000 0.510000 0.155000
0.115000 0.510000 0.155000
0.230000 0.510000 0.155000
0.345000 0.510000 0.155000
0.460000 0.510000 0.155000
0.575000 0.510000 0.155000
0.690000 0.510000 0.155000
0.805000 0.510000 0.155000
0.920000 0.510000 0.155000
0.000000 0.637500 0.155000
0.115000 0.637500 0.155000
0.230000 0.637500 0.155000
0.345000 0.637500 0.155000
0.460000 0.637500 0.155000
0.575000 0.637500 0.155000
0.690000 0.637500 0.155000
0.805000 0.637500 0.155000
0.920000 0.637500 0.155000
0.000000 0.765000 0.155000
0.115000 0.765000 0.155000
0.230000 0.765000 0.155000
0.345000 0.765000 0.155000
0.460000 0.765000 0.155000
0.575000 0.765000 0.155000
0.690000 0.765000 0.155000
0.805000 0.765000 0.155000
0.920000 0.765000 0.155000
0.000000 0.892500 0.155000
0.115000 0.892500 0.155000
0.230000 0.892500 0.155000
0.345000 0.892500 0.155000
0.460000 0.892500 0.155000
0.575000 0.892500 0.155000
0.690000 0.892500 0.155000
0.805000 0.892500 0.155000
0.920000 0.892500 0.155000
0.000000 1.000000 0.155000
0.115000 1.000000 0.155000
0.230000 1.000000 0.155000
0.345000 1.000000 0.155000
0.460000 1.000000 0.155000
0.575000 1.000000 0.155000
0.690000 1.000000 0.155000
0.805000 1.000000 0.155000
0.920000 1.000000 0.155000
0.000000 0.000000 0.290000
0.115000 0.000000 0.290000
0.230000 0.000000 0.290000
0.345000 0.000000 0.290000
0.460000 0.000000 0.290000
0.575000 0.000000 0.290000
0.690000 0.000000 0.290000
0.805000 0.000000 0.290000
0.920000 0.000000 0.290000
0.000000 0.127500 0.290000
0.115000 0.127500 0.290000
0.230000 0.127500 0.290000
0.345000 0.127500 0.290000
0.460000 0.127500 0.290000
0.575000 0.127500 0.290000
0.690000 0.127500 0.290000
0.805000 0.127500 0.290000
0.920000 0.127500 0.290000
0.000000 0.255000 0.290000
0.115000 0.255000 0.290000
0.230000 0.255000 0.290000
0.345000 0.255000 0.290000
0.460000 0.255000 0.290000
0.575000 0.255000 0.290000
0.690000 0.255000 0.290000
0.805000 0.255000 0.290000
0.920000 0.255000 0.290000
0.000000 0.382500 0.290000
0.115000 0.382500 0.290000
0.230000 0.382500 0.290000
0.345000 0.382500 0.290000
0.460000 0.382500 0.290000
0.575000 0.382500 0.290000
0.690000 0.382500 0.290000
0.805000 0.382500 0.290000
0.920000 0.382500 0.290000
0.000000 0.510000 0.290000
0.115000 0.510000 0.290000
0.230000 0.510000 0.290000
0.345000 0.510000 0.290000
0.460000 0.510000 0.290000
0.575000 0.510000 0.290000
0.690000 0.510000 0.290000
0.805000 0.510000 0.290000
0.920000 0.510000 0.290000
0.000000 0.637500 0.290000
0.115000 0.637500 0.290000
0.230000 0.637500 0.290000
0.345000 0.637500 0.290000
0.460000 0.637500 0.290000
0.575000 0.637500 0.290000
0.690000 0.637500 0.290000
0.805000 0.637500 0.290000
0.920000 0.637500 0.290000
0.000000 0.765000 0.290000
0.115000 0.765000 0.290000
0.230000 0.765000 0.290000
0.345000 0.765000 0.290000
0.460000 0.765000 0.290000
0.575000 0.765000 0.290000
0.690000 0.765000 0.290000
0.805000 0.765000 0.290000
0.920000 0.765000 0.290000
0.000000 0.892500 0.290000
0.115000 0.892500 0.290000
0.230000 0.892500 0.290000
0.345000 0.892500 0.290000
0.460000 0.892500 0.290000
0.575000 0.892500 0.290000
0.690000 0.892500 0.290000
0.805000 0.892500 0.290000
0.920000 0.892500 0.290000
0.000000 1.000000 0.290000
0.115000 1.000000 0.290000
0.230000 1.000000 0.290000
0.345000 1.000000 0.290000
0.460000 1.000000 0.290000
0.575000 1.000000 0.290000
0.690000 1.000000 0.290000
0.805000 1.000000 0.290000
0.920000 1.000000 0.290000
0.000000 0.000000 0.425000
0.115000 0.000000 0.425000
0.230000 0.000000 0.425000
0.345000 0.000000 0.425000
0.460000 0.000000 0.425000
0.575000 0.000000 0.425000
0.690000 0.000000 0.425000
0.805000 0.000000 0.425000
0.920000 0.000000 0.425000
0.000000 0.127500 0.425000
0.115000 0.127500 0.425000
0.230000 0.127500 0.425000
0.345000 0.127500 0.425000
0.460000 0.127500 0.425000
0.575000 0.127500 0.425000
0.690000 0.127500 0.425000
0.805000 0.127500 0.425000
0.920000 0.127500 0.425000
0.000000 0.255000 0.425000
0.115000 0.255000 0.425000
0.230000 0.255000 0.425000
0.345000 0.255000 0.425000
0.460000 0.255000 0.425000
0.575000 0.255000 0.425000
0.690000 0.255000 0.425000
0.805000 0.255000 0.425000
0.920000 0.255000 0.425000
0.000000 0.382500 0.425000
0.115000 0.382500 0.425000
0.230000 0.382500 0.425000
0.345000 0.382500 0.425000
0.460000 0.382500 0.425000
0.575000 0.382500 0.425000
0.690000 0.382500 0.425000
0.805000 0.382500 0.425000
0.920000 0.382500 0.425000
0.000000 0.510000 0.425000
0.115000 0.510000 0.425000
0.230000 0.510000 0.425000
0.345000 0.510000 0.425000
0.460000 0.510000 0.425000
0.575000 0.510000 0.425000
0.690000 0.510000 0.425000
0.805000 0.510000 0.425000
0.920000 0.510000 0.425000
0.000000 0.637500 0.425000
0.115000 0.637500 0.425000
0.230000 0.637500 0.425000
0.345000 0.637500 0.425000
0.460000 0.637500 0.425000
0.575000 0.637500 0.425000
0.690000 0.637500 0.425000
0.805000 0.637500 0.425000
0.920000 0.637500 0.425000
0.000000 0.765000 0.425000
0.115000 0.765000 0.425000
0.230000 0.765000 0.425000
0.345000 0.765000 0.425000
0.460000 0.765000 0.425000
0.575000 0.765000 0.425000
0.690000 0.765000 0.425000
0.805000 0.765000 0.425000
0.920000 0.765000 0.425000
0.000000 0.892500 0.425000
0.115000 0.892500 0.425000
0.230000 0.892500 0.425000
0.345000 0.892500 0.425000
0.460000 0.892500 0.425000
0.575000 0.892500 0.425000
0.690000 0.892500 0.425000
0.805000 0.892500 0.425000
0.920000 0.892500 0.425000
0.000000 1.000000 0.425000
0.115000 1.000000 0.425000
0.230000 1.000000 0.425000
0.345000 1.000000 0.425000
0.460000 1.000000 0.425000
0.575000 1.000000 0.425000
0.690000 1.000000 0.425000
0.805000 1.000000 0.425000
0.920000 1.000000 0.425000
0.000000 0.000000 0.560000
0.115000 0.000000 0.560000
0.230000 0.000000 0.560000
0.345000 0.000000 0.560000
0.460000 0.000000 0.560000
0.575000 0.000000 0.560000
0.690000 0.000000 0.560000
0.805000 0.000000 0.560000
0.920000 0.000000 0.560000
0.000000 0.127500 0.560000
0.115000 0.127500 0.560000
0.230000 0.127500 0.560000
0.345000 0.127500 0.560000
0.460000 0.127500 0.560000
0.575000 0.127500 0.560000
0.690000 0.127500 0.560000
0.805000 0.127500 0.560000
0.920000 0.127500 0.560000
0.000000 0.255000 0.560000
0.115000 0.255000 0.560000
0.230000 0.255000 0.560000
0.345000 0.255000 0.560000
0.460000 0.255000 0.560000
0.575000 0.255000 0.560000
0.690000 0.255000 0.560000
0.805000 0.255000 0.560000
0.920000 0.255000 0.560000
0.000000 0.382500 0.560000
0.115000 0.382500 0.560000
0.230000 0.382500 0.560000
0.345000 0.382500 0.560000
0.460000 0.382500 0.560000
0.575000 0.382500 0.560000
0.690000 0.382500 0.560000
0.805000 0.382500 0.560000
0.920000 0.382500 0.560000
0.000000 0.510000 0.560000
0.115000 0.510000 0.560000
0.230000 0.510000 0.560000
0.345000 0.510000 0.560000
0.460000 0.510000 0.560000
0.575000 0.510000 0.560000
0.690000 0.510000 0.560000
0.805000 0.510000 0.560000
0.920000 0.510000 0.560000
0.000000 0.637500 0.560000
0.115000 0.637500 0.560000
0.230000 0.637500 0.560000
0.345000 0.637500 0.560000
0.460000 0.637500 0.560000
0.575000 0.637500 0.560000
0.690000 0.637500 0.560000
0.805000 0.637500 0.560000
0.920000 0.637500 0.560000
0.000000 0.765000 0.560000
0.115000 0.765000 0.560000
0.230000 0.765000 0.560000
0.345000 0.765000 0.560000
0.460000 0.765000 0.560000
0.575000 0.765000 0.560000
0.690000 0.765000 0.560000
0.805000 0.765000 0.560000
0.920000 0.765000 0.560000
0.000000 0.892500 0.560000
0.115000 0.892500 0.560000
0.230000 0.892500 0.560000
0.345000 0.892500 0.560000
0.460000 0.892500 0.560000
0.575000 0.892500 0.560000
0.690000 0.892500 0.560000
0.805000 0.892500 0.560000
0.920000 0.892500 0.560000
0.000000 1.000000 0.560000
0.115000 1.000000 0.560000
0.230000 1.000000 0.560000
0.345000 1.000000 0.560000
0.460000 1.000000 0.560000
0.575000 1.000000 0.560000
0.690000 1.000000 0.560000
0.805000 1.000000 0.560000
0.920000 1.000000 0.560000
0.000000 0.000000 0.695000
0.115000 0.000000 0.695000
0.230000 0.000000 0.695000
0.345000 0.000000 0.695000
0.460000 0.000000 0.695000
0.575000 0.000000 0.695000
0.690000 0.000000 0.695000
0.805000 0.000000 0.695000
0.920000 0.000000 0.695000
0.000000 0.127500 0.695000
0.115000 0.127500 0.695000
0.230000 0.127500 0.695000
0.345000 0.127500 0.695000
0.460000 0.127500 0.695000
0.575000 0.127500 0.695000
0.690000 0.127500 0.695000
0.805000 0.127500 0.695000
0.920000 0.127500 0.695000
0.000000 0.255000 0.695000
0.115000 0.255000 0.695000
0.230000 0.255000 0.695000
0.345000 0.255000 0.695000
0.460000 0.255000 0.695000
0.575000 0.255000 0.695000
0.690000 0.255000 0.695000
0.805000 0.255000 0.695000
0.920000 0.255000 0.695000
0.000000 0.382500 0.695000
0.115000 0.382500 0.695000
0.230000 0.382500 0.695000
0.345000 0.382500 0.695000
0.460000 0.382500 0.695000
0.575000 0.382500 0.695000
0.690000 0.382500 0.695000
0.805000 0.382500 0.695000
0.920000 0.382500 0.695000
0.000000 0.510000 0.695000
0.115000 0.510000 0.695000
0.230000 0.510000 0.695000
0.345000 0.510000 0.695000
0.460000 0.510000 0.695000
0.575000 0.510000 0.695000
0.690000 0.510000 0.695000
0.805000 0.510000 0.695000
0.920000 0.510000 0.695000
0.000000 0.637500 0.695000
0.115000 0.637500 0.695000
0.230000 0.637500 0.695000
0.345000 0.637500 0.695000
0.460000 0.637500 0.695000
0.575000 0.637500 0.695000
0.690000 0.637500 0.695000
0.805000 0.637500 0.695000
0.920000 0.637500 0.695000
0.000000 0.765000 0.695000
0.115000 0.765000 0.695000
0.230000 0.765000 0.695000
0.345000 0.765000 0.695000
0.460000 0.765000 0.695000
0.575000 0.765000 0.695000
0.690000 0.765000 0.695000
0.805000 0.765000 0.695000
0.920000 0.765000 0.695000
0.000000 0.892500 0.695000
0.115000 0.892500 0.695000
0.230000 0.892500 0.695000
0.345000 0.892500 0.695000
0.460000 0.892500 0.695000
0.575000 0.892500 0.695000
0.690000 0.892500 0.695000
0.805000 0.892500 0.695000
0.920000 0.892500 0.695000
0.000000 1.000000 0.695000
0.115000 1.000000 0.695000
0.230000 1.000000 0.695000
0.345000 1.000000 0.695000
0.460000 1.000000 0.695000
0.575000 1.000000 0.695000
0.690000 1.000000 0.695000
0.805000 1.000000 0.695000
0.920000 1.000000 0.695000
0.000000 0.000000 0.830000
0.115000 0.000000 0.830000
0.230000 0.000000 0.830000
0.345000 0.000000 0.830000
0.460000 0.000000 0.830000
0.575000 0.000000 0.830000
0.690000 0.000000 0.830000
0.805000 0.000000 0.830000
0.920000 0.000000 0.830000
0.000000 0.127500 0.830000
0.115000 0.127500 0.830000
0.230000 0.127500 0.830000
0.345000 0.127500 0.830000
0.460000 0.127500 0.830000
0.575000 0.127500 0.830000
0.690000 0.127500 0.830000
0.805000 0.127500 0.830000
0.920000 0.127500 0.830000
0.000000 0.255000 0.830000
0.115000 0.255000 0.830000
0.230000 0.255000 0.830000
0.345000 0.255000 0.830000
0.460000 0.255000 0.830000
0.575000 0.255000 0.830000
0.690000 0.255000 0.830000
0.805000 0.255000 0.830000
0.920000 0.255000 0.830000
0.000000 0.382500 0.830000
0.115000 0.382500 0.830000
0.230000 0.382500 0.830000
0.345000 0.382500 0.830000
0.460000 0.382500 0.830000
0.575000 0.382500 0.830000
0.690000 0.382500 0.830000
0.805000 0.382500 0.830000
0.920000 0.382500 0.830000
0.000000 0.510000 0.830000
0.115000 0.510000 0.830000
0.230000 0.510000 0.830000
0.345000 0.510000 0.830000
0.460000 0.510000 0.830000
0.575000 0.510000 0.830000
0.690000 0.510000 0.830000
0.805000 0.510000 0.830000
0.920000 0.510000 0.830000
0.000000 0.637500 0.830000
0.115000 0.637500 0.830000
0.230000 0.637500 0.830000
0.345000 0.637500 0.830000
0.460000 0.637500 0.830000
0.575000 0.637500 0.830000
0.690000 0.637500 0.830000
0.805000 0.637500 0.830000
0.920000 0.637500 0.830000
0.000000 0.765000 0.830000
0.115000 0.765000 0.830000
0.230000 0.765000 0.830000
0.345000 0.765000 0.830000
0.460000 0.765000 0.830000
0.575000 0.765000 0.830000
0.690000 0.765000 0.830000
0.805000 0.765000 0.830000
0.920000 0.765000 0.830000
0.000000 0.892500 0.830000
0.115000 0.892500 0.830000
0.230000 0.892500 0.830000
0.345000 0.892500 0.830000
0.460000 0.892500 0.830000
0.575000 0.892500 0.830000
0.690000 0.892500 0.830000
0.805000 0.892500 0.830000
0.920000 0.892500 0.830000
0.000000 1.000000 0.830000
0.115000 1.000000 0.830000
0.230000 1.000000 0.830000
0.345000 1.000000 0.830000
0.460000 1.000000 0.830000
0.575000 1.000000 0.830000
0.690000 1.000000 0.830000
0.805000 1.000000 0.830000
0.920000 1.000000 0.830000
0.000000 0.000000 0.965000
0.115000 0.000000 0.965000
0.230000 0.000000 0.965000
0.345000 0.000000 0.965000
0.460000 0.000000 0.965000
0.575000 0.000000 0.965000
0.690000 0.000000 0.965000
0.805000 0.000000 0.965000
0.920000 0.000000 0.965000
0.000000 0.127500 0.965000
0.115000 0.127500 0.965000
0.230000 0.127500 0.965000
0.345000 0.127500 0.965000
0.460000 0.127500 0.965000
0.575000 0.127500 0.965000
0.690000 0.127500 0.965000
0.805000 0.127500 0.965000
0.920000 0.127500 0.965000
0.000000 0.255000 0.965000
0.115000 0.255000 0.965000
0.230000 0.255000 0.965000
0.345000 0.255000 0.965000
0.460000 0.255000 0.965000
0.575000 0.255000 0.965000
0.690000 0.255000 0.965000
0.805000 0.255000 0.965000
0.920000 0.255000 0.965000
0.000000 0.382500 0.965000
0.115000 0.382500 0.965000
0.230000 0.382500 0.965000
0.345000 0.382500 0.965000
0.460000 0.382500 0.965000
0.575000 0.382500 0.965000
0.690000 0.382500 0.965000
0.805000 0.382500 0.965000
0.920000 0.382500 0.965000
0.000000 0.510000 0.965000
0.115000 0.510000 0.965000
0.230000 0.510000 0.965000
0.345000 0.510000 0.965000
0.460000 0.510000 0.965000
0.575000 0.510000 0.965000
0.690000 0.510000 0.965000
0.805000 0.510000 0.965000
0.920000 0.510000 0.965000
0.000000 0.637500 0.965000
0.115000 0.637500 0.965000
0.230000 0.637500 0.965000
0.345000 0.637500 0.965000
0.460000 0.637500 0.965000
0.575000 0.637500 0.965000
0.690000 0.637500 0.965000
0.805000 0.637500 0.965000
0.920000 0.637500 0.965000
0.000000 0.765000 0.965000
0.115000 0.765000 0.965000
0.230000 0.765000 0.965000
0.345000 0.765000 0.965000
0.460000 0.765000 0.965000
0.575000 0.765000 0.965000
0.690000 0.765000 0.965000
0.805000 0.765000 0.965000
0.920000 0.765000 0.965000
0.000000 0.892500 0.965000
0.115000 0.892500 0.965000
0.230000 0.892500 0.965000
0.345000 0.892500 0.965000
0.460000 0.892500 0.965000
0.575000 0.892500 0.965000
0.690000 0.892500 0.965000
0.805000 0.892500 0.965000
0.920000 0.892500 0.965000
0.000000 1.000000 0.965000
0.115000 1.000000 0.965000
0.230000 1.000000 0.965000
0.345000 1.000000 0.965000
0.460000 1.000000 0.965000
0.575000 1.000000 0.965000
0.690000 1.000000 0.965000
0.805000 1.000000 0.965000
0.920000 1.000000 0.965000
0.000000 0.000000 1.000000
0.115000 0.000000 1.000000
0.230000 0.000000 1.000000
0.345000 0.000000 1.000000
0.460000 0.000000 1.000000
0.575000 0.000000 1.000000
0.690000 0.000000 1.000000
0.805000 0.000000 1.000000
0.920000 0.000000 1.000000
0.000000 0.127500 1.000000
0.115000 0.127500 1.000000
0.230000 0.127500 1.000000
0.345000 0.127500 1.000000
0.460000 0.127500 1.000000
0.575000 0.127500 1.000000
0.690000 0.127500 1.000000
0.805000 0.127500 1.000000
0.920000 0.127500 1.000000
0.000000 0.255000 1.000000
0.115000 0.255000 1.000000
0.230000 0.255000 1.000000
0.345000 0.255000 1.000000
0.460000 0.255000 1.000000
0.575000 0.255000 1.000000
0.690000 0.255000 1.000000
0.805000 0.255000 1.000000
0.920000 0.255000 1.000000
0.000000 0.382500 1.000000
0.115000 0.382500 1.000000
0.230000 0.382500 1.000000
0.345000 0.382500 1.000000
0.460000 0.382500 1.000000
0.575000 0.382500 1.000000
0.690000 0.382500 1.000000
0.805000 0.382500 1.000000
0.920000 0.382500 1.000000
0.000000 0.510000 1.000000
0.115000 0.510000 1.000000
0.230000 0.510000 1.000000
0.345000 0.510000 1.000000
0.460000 0.510000 1.000000
0.575000 0.510000 1.000000
0.690000 0.510000 1.000000
0.805000 0.510000 1.000000
0.920000 0.510000 1.000000
0.000000 0.637500 1.000000
0.115000 0.637500 1.000000
0.230000 0.637500 1.000000
0.345000 0.637500 1.000000
0.460000 0.637500 1.000000
0.575000 0.637500 1.000000
0.690000 0.637500 1.000000
0.805000 0.637500 1.000000
0.920000 0.637500 1.000000
0.000000 0.765000 1.000000
0.115000 0.765000 1.000000
0.230000 0.765000 1.000000
0.345000 0.765000 1.000000
0.460000 0.765000 1.000000
0.575000 0.765000 1.000000
0.690000 0.765000 1.000000
0.805000 0.765000 1.000000
0.920000 0.765000 1.000000
0.000000 0.892500 1.000000
0.115000 0.892500 1.000000
0.230000 0.892500 1.000000
0.345000 0.892500 1.000000
0.460000 0.892500 1.000000
0.575000 0.892500 1.000000
0.690000 0.892500 1.000000
0.805000 0.892500 1.000000
0.920000 0.892500 1.000000
0.000000 1.000000 1.000000
0.115000 1.000000 1.000000
0.230000 1.000000 1.000000
0.345000 1.000000 1.000000
0.460000 1.000000 1.000000
0.575000 1.000000 1.000000
0.690000 1.000000 1.000000
0.805000 1.000000 1.000000
0.920000 1.000000 1.000000
