Apps/PeekLUT/Resources/SampleLUTs/Cool.cube
TITLE "Cool 17"
LUT_3D_SIZE 5
DOMAIN_MIN 0.0 0.0 0.0
DOMAIN_MAX 1.0 1.0 1.0
0.000000 0.000000 0.020000
0.230000 0.000000 0.020000
0.460000 0.000000 0.020000
0.690000 0.000000 0.020000
0.920000 0.000000 0.020000
0.000000 0.255000 0.020000
0.230000 0.255000 0.020000
0.460000 0.255000 0.020000
0.690000 0.255000 0.020000
0.920000 0.255000 0.020000
0.000000 0.510000 0.020000
0.230000 0.510000 0.020000
0.460000 0.510000 0.020000
0.690000 0.510000 0.020000
0.920000 0.510000 0.020000
0.000000 0.765000 0.020000
0.230000 0.765000 0.020000
0.460000 0.765000 0.020000
0.690000 0.765000 0.020000
0.920000 0.765000 0.020000
0.000000 1.000000 0.020000
0.230000 1.000000 0.020000
0.460000 1.000000 0.020000
0.690000 1.000000 0.020000
0.920000 1.000000 0.020000
0.000000 0.000000 0.290000
0.230000 0.000000 0.290000
0.460000 0.000000 0.290000
0.690000 0.000000 0.290000
0.920000 0.000000 0.290000
0.000000 0.255000 0.290000
0.230000 0.255000 0.290000
0.460000 0.255000 0.290000
0.690000 0.255000 0.290000
0.920000 0.255000 0.290000
0.000000 0.510000 0.290000
0.230000 0.510000 0.290000
0.460000 0.510000 0.290000
0.690000 0.510000 0.290000
0.920000 0.510000 0.290000
0.000000 0.765000 0.290000
0.230000 0.765000 0.290000
0.460000 0.765000 0.290000
0.690000 0.765000 0.290000
0.920000 0.765000 0.290000
0.000000 1.000000 0.290000
0.230000 1.000000 0.290000
0.460000 1.000000 0.290000
0.690000 1.000000 0.290000
0.920000 1.000000 0.290000
0.000000 0.000000 0.560000
0.230000 0.000000 0.560000
0.460000 0.000000 0.560000
0.690000 0.000000 0.560000
0.920000 0.000000 0.560000
0.000000 0.255000 0.560000
0.230000 0.255000 0.560000
0.460000 0.255000 0.560000
0.690000 0.255000 0.560000
0.920000 0.255000 0.560000
0.000000 0.510000 0.560000
0.230000 0.510000 0.560000
0.460000 0.510000 0.560000
0.690000 0.510000 0.560000
0.920000 0.510000 0.560000
0.000000 0.765000 0.560000
0.230000 0.765000 0.560000
0.460000 0.765000 0.560000
0.690000 0.765000 0.560000
0.920000 0.765000 0.560000
0.000000 1.000000 0.560000
0.230000 1.000000 0.560000
0.460000 1.000000 0.560000
0.690000 1.000000 0.560000
0.920000 1.000000 0.560000
0.000000 0.000000 0.830000
0.230000 0.000000 0.830000
0.460000 0.000000 0.830000
0.690000 0.000000 0.830000
0.920000 0.000000 0.830000
0.000000 0.255000 0.830000
0.230000 0.255000 0.830000
0.460000 0.255000 0.830000
0.690000 0.255000 0.830000
0.920000 0.255000 0.830000
0.000000 0.510000 0.830000
0.230000 0.510000 0.830000
0.460000 0.510000 0.830000
0.690000 0.510000 0.830000
0.920000 0.510000 0.830000
0.000000 0.765000 0.830000
0.230000 0.765000 0.830000
0.460000 0.765000 0.830000
0.690000 0.765000 0.830000
0.920000 0.765000 0.830000
0.000000 1.000000 0.830000
0.230000 1.000000 0.830000
0.460000 1.000000 0.830000
0.690000 1.000000 0.830000
0.920000 1.000000 0.830000
0.000000 0.000000 1.000000
0.230000 0.000000 1.000000
0.460000 0.000000 1.000000
0.690000 0.000000 1.000000
0.920000 0.000000 1.000000
0.000000 0.255000 1.000000
0.230000 0.255000 1.000000
0.460000 0.255000 1.000000
0.690000 0.255000 1.000000
0.920000 0.255000 1.000000
0.000000 0.510000 1.000000
0.230000 0.510000 1.000000
0.460000 0.510000 1.000000
0.690000 0.510000 1.000000
0.920000 0.510000 1.000000
0.000000 0.765000 1.000000
0.230000 0.765000 1.000000
0.460000 0.765000 1.000000
0.690000 0.765000 1.000000
0.920000 0.765000 1.000000
0.000000 1.000000 1.000000
0.230000 1.000000 1.000000
0.460000 1.000000 1.000000
0.690000 1.000000 1.000000
0.920000 1.000000 1.000000
