Apps/PeekLUT/Resources/SampleLUTs/Sepia.cube
TITLE "Sepia 17"
LUT_3D_SIZE 17
DOMAIN_MIN 0.0 0.0 0.0
DOMAIN_MAX 1.0 1.0 1.0
0.000000 0.000000 0.000000
0.024563 0.021812 0.017000
0.049125 0.043625 0.034000
0.073688 0.065437 0.051000
0.098250 0.087250 0.068000
0.122813 0.109062 0.085000
0.147375 0.130875 0.102000
0.171938 0.152687 0.119000
0.196500 0.174500 0.136000
0.221062 0.196313 0.153000
0.245625 0.218125 0.170000
0.270188 0.239937 0.187000
0.294750 0.261750 0.204000
0.319312 0.283562 0.221000
0.343875 0.305375 0.238000
0.368438 0.327187 0.255000
0.393000 0.349000 0.272000
0.048063 0.042875 0.033375
0.072625 0.064688 0.050375
0.097188 0.086500 0.067375
0.121750 0.108313 0.084375
0.146313 0.130125 0.101375
0.170875 0.151938 0.118375
0.195438 0.173750 0.135375
0.220000 0.195562 0.152375
0.244563 0.217375 0.169375
0.269125 0.239187 0.186375
0.293687 0.261000 0.203375
0.318250 0.282812 0.220375
0.342813 0.304625 0.237375
0.367375 0.326437 0.254375
0.391938 0.348250 0.271375
0.416500 0.370062 0.288375
0.441063 0.391875 0.305375
0.096125 0.085750 0.066750
0.120688 0.107563 0.083750
0.145250 0.129375 0.100750
0.169813 0.151188 0.117750
0.194375 0.173000 0.134750
0.218938 0.194812 0.151750
0.243500 0.216625 0.168750
0.268063 0.238437 0.185750
0.292625 0.260250 0.202750
0.317188 0.282062 0.219750
0.341750 0.303875 0.236750
0.366313 0.325687 0.253750
0.390875 0.347500 0.270750
0.415438 0.369312 0.287750
0.440000 0.391125 0.304750
0.464563 0.412937 0.321750
0.489125 0.434750 0.338750
0.144187 0.128625 0.100125
0.168750 0.150438 0.117125
0.193312 0.172250 0.134125
0.217875 0.194063 0.151125
0.242438 0.215875 0.168125
0.267000 0.237687 0.185125
0.291563 0.259500 0.202125
0.316125 0.281312 0.219125
0.340688 0.303125 0.236125
0.365250 0.324937 0.253125
0.389813 0.346750 0.270125
0.414375 0.368563 0.287125
0.438937 0.390375 0.304125
0.463500 0.412188 0.321125
0.488063 0.434000 0.338125
0.512625 0.455812 0.355125
0.537188 0.477625 0.372125
0.192250 0.171500 0.133500
0.216813 0.193312 0.150500
0.241375 0.215125 0.167500
0.265937 0.236938 0.184500
0.290500 0.258750 0.201500
0.315063 0.280562 0.218500
0.339625 0.302375 0.235500
0.364187 0.324187 0.252500
0.388750 0.346000 0.269500
0.413312 0.367812 0.286500
0.437875 0.389625 0.303500
0.462438 0.411438 0.320500
0.487000 0.433250 0.337500
0.511563 0.455063 0.354500
0.536125 0.476875 0.371500
0.560688 0.498687 0.388500
0.585250 0.520500 0.405500
0.240313 0.214375 0.166875
0.264875 0.236187 0.183875
0.289438 0.258000 0.200875
0.314000 0.279813 0.217875
0.338562 0.301625 0.234875
0.363125 0.323437 0.251875
0.387688 0.345250 0.268875
0.412250 0.367062 0.285875
0.436813 0.388875 0.302875
0.461375 0.410687 0.319875
0.485938 0.432500 0.336875
0.510500 0.454313 0.353875
0.535062 0.476125 0.370875
0.559625 0.497938 0.387875
0.584188 0.519750 0.404875
0.608750 0.541562 0.421875
0.633313 0.563375 0.438875
0.288375 0.257250 0.200250
0.312937 0.279063 0.217250
0.337500 0.300875 0.234250
0.362063 0.322688 0.251250
0.386625 0.344500 0.268250
0.411187 0.366313 0.285250
0.435750 0.388125 0.302250
0.460313 0.409938 0.319250
0.484875 0.431750 0.336250
0.509437 0.453563 0.353250
0.534000 0.475375 0.370250
0.558563 0.497188 0.387250
0.583125 0.519000 0.404250
0.607687 0.540813 0.421250
0.632250 0.562625 0.438250
0.656813 0.584437 0.455250
0.681375 0.606250 0.472250
0.336438 0.300125 0.233625
0.361000 0.321938 0.250625
0.385563 0.343750 0.267625
0.410125 0.365563 0.284625
0.434688 0.387375 0.301625
0.459250 0.409188 0.318625
0.483812 0.431000 0.335625
0.508375 0.452813 0.352625
0.532938 0.474625 0.369625
0.557500 0.496438 0.386625
0.582063 0.518250 0.403625
0.606625 0.540063 0.420625
0.631188 0.561875 0.437625
0.655750 0.583688 0.454625
0.680313 0.605500 0.471625
0.704875 0.627312 0.488625
0.729437 0.649125 0.505625
0.384500 0.343000 0.267000
0.409062 0.364813 0.284000
0.433625 0.386625 0.301000
0.458188 0.408438 0.318000
0.482750 0.430250 0.335000
0.507313 0.452063 0.352000
0.531875 0.473875 0.369000
0.556438 0.495688 0.386000
0.581000 0.517500 0.403000
0.605563 0.539313 0.420000
0.630125 0.561125 0.437000
0.654688 0.582937 0.454000
0.679250 0.604750 0.471000
0.703812 0.626563 0.488000
0.728375 0.648375 0.505000
0.752938 0.670187 0.522000
0.777500 0.692000 0.539000
0.432563 0.385875 0.300375
0.457125 0.407688 0.317375
0.481688 0.429500 0.334375
0.506250 0.451313 0.351375
0.530813 0.473125 0.368375
0.555375 0.494938 0.385375
0.579937 0.516750 0.402375
0.604500 0.538563 0.419375
0.629063 0.560375 0.436375
0.653625 0.582188 0.453375
0.678188 0.604000 0.470375
0.702750 0.625812 0.487375
0.727313 0.647625 0.504375
0.751875 0.669438 0.521375
0.776438 0.691250 0.538375
0.801000 0.713062 0.555375
0.825562 0.734875 0.572375
0.480625 0.428750 0.333750
0.505188 0.450563 0.350750
0.529750 0.472375 0.367750
0.554312 0.494188 0.384750
0.578875 0.516000 0.401750
0.603438 0.537813 0.418750
0.628000 0.559625 0.435750
0.652563 0.581438 0.452750
0.677125 0.603250 0.469750
0.701688 0.625063 0.486750
0.726250 0.646875 0.503750
0.750813 0.668687 0.520750
0.775375 0.690500 0.537750
0.799937 0.712313 0.554750
0.824500 0.734125 0.571750
0.849063 0.755937 0.588750
0.873625 0.777750 0.605750
0.528687 0.471625 0.367125
0.553250 0.493438 0.384125
0.577812 0.515250 0.401125
0.602375 0.537062 0.418125
0.626937 0.558875 0.435125
0.651500 0.580688 0.452125
0.676063 0.602500 0.469125
0.700625 0.624313 0.486125
0.725187 0.646125 0.503125
0.749750 0.667938 0.520125
0.774312 0.689750 0.537125
0.798875 0.711562 0.554125
0.823438 0.733375 0.571125
0.848000 0.755188 0.588125
0.872563 0.777000 0.605125
0.897125 0.798812 0.622125
0.921687 0.820625 0.639125
0.576750 0.514500 0.400500
0.601313 0.536313 0.417500
0.625875 0.558125 0.434500
0.650438 0.579938 0.451500
0.675000 0.601750 0.468500
0.699562 0.623563 0.485500
0.724125 0.645375 0.502500
0.748687 0.667188 0.519500
0.773250 0.689000 0.536500
0.797813 0.710813 0.553500
0.822375 0.732625 0.570500
0.846938 0.754438 0.587500
0.871500 0.776250 0.604500
0.896062 0.798063 0.621500
0.920625 0.819875 0.638500
0.945188 0.841688 0.655500
0.969750 0.863500 0.672500
0.624812 0.557375 0.433875
0.649375 0.579188 0.450875
0.673937 0.601000 0.467875
0.698500 0.622813 0.484875
0.723062 0.644625 0.501875
0.747625 0.666438 0.518875
0.772188 0.688250 0.535875
0.796750 0.710063 0.552875
0.821313 0.731875 0.569875
0.845875 0.753688 0.586875
0.870437 0.775500 0.603875
0.895000 0.797313 0.620875
0.919563 0.819125 0.637875
0.944125 0.840938 0.654875
0.968688 0.862750 0.671875
0.993250 0.884563 0.688875
1.000000 0.906375 0.705875
0.672875 0.600250 0.467250
0.697438 0.622063 0.484250
0.722000 0.643875 0.501250
0.746563 0.665688 0.518250
0.771125 0.687500 0.535250
0.795687 0.709313 0.552250
0.820250 0.731125 0.569250
0.844812 0.752938 0.586250
0.869375 0.774750 0.603250
0.893938 0.796563 0.620250
0.918500 0.818375 0.637250
0.943063 0.840188 0.654250
0.967625 0.862000 0.671250
0.992188 0.883813 0.688250
1.000000 0.905625 0.705250
1.000000 0.927438 0.722250
1.000000 0.949250 0.739250
0.720938 0.643125 0.500625
0.745500 0.664938 0.517625
0.770062 0.686750 0.534625
0.794625 0.708563 0.551625
0.819187 0.730375 0.568625
0.843750 0.752188 0.585625
0.868313 0.774000 0.602625
0.892875 0.795813 0.619625
0.917438 0.817625 0.636625
0.942000 0.839438 0.653625
0.966562 0.861250 0.670625
0.991125 0.883063 0.687625
1.000000 0.904875 0.704625
1.000000 0.926688 0.721625
1.000000 0.948500 0.738625
1.000000 0.970313 0.755625
1.000000 0.992125 0.772625
0.769000 0.686000 0.534000
0.793563 0.707813 0.551000
0.818125 0.729625 0.568000
0.842688 0.751438 0.585000
0.867250 0.773250 0.602000
0.891813 0.795063 0.619000
0.916375 0.816875 0.636000
0.940937 0.838688 0.653000
0.965500 0.860500 0.670000
0.990063 0.882313 0.687000
1.000000 0.904125 0.704000
1.000000 0.925938 0.721000
1.000000 0.947750 0.738000
1.000000 0.969563 0.755000
1.000000 0.991375 0.772000
1.000000 1.000000 0.789000
1.000000 1.000000 0.806000
0.011813 0.010500 0.008188
0.036375 0.032313 0.025188
0.060938 0.054125 0.042188
0.085500 0.075937 0.059188
0.110063 0.097750 0.076188
0.134625 0.119562 0.093188
0.159188 0.141375 0.110188
0.183750 0.163187 0.127188
0.208313 0.185000 0.144188
0.232875 0.206813 0.161188
0.257437 0.228625 0.178187
0.282000 0.250437 0.195188
0.306563 0.272250 0.212188
0.331125 0.294063 0.229188
0.355688 0.315875 0.246188
0.380250 0.337687 0.263188
0.404813 0.359500 0.280188
0.059875 0.053375 0.041563
0.084437 0.075188 0.058563
0.109000 0.097000 0.075563
0.133563 0.118813 0.092563
0.158125 0.140625 0.109563
0.182688 0.162438 0.126563
0.207250 0.184250 0.143563
0.231813 0.206062 0.160562
0.256375 0.227875 0.177563
0.280938 0.249688 0.194563
0.305500 0.271500 0.211563
0.330063 0.293312 0.228563
0.354625 0.315125 0.245563
0.379188 0.336938 0.262563
0.403750 0.358750 0.279563
0.428313 0.380562 0.296563
0.452875 0.402375 0.313563
0.107938 0.096250 0.074938
0.132500 0.118063 0.091938
0.157062 0.139875 0.108938
0.181625 0.161688 0.125938
0.206188 0.183500 0.142937
0.230750 0.205313 0.159938
0.255312 0.227125 0.176938
0.279875 0.248937 0.193938
0.304438 0.270750 0.210938
0.329000 0.292563 0.227938
0.353563 0.314375 0.244938
0.378125 0.336187 0.261938
0.402688 0.358000 0.278938
0.427250 0.379812 0.295938
0.451813 0.401625 0.312938
0.476375 0.423437 0.329937
0.500938 0.445250 0.346938
0.156000 0.139125 0.108313
0.180563 0.160938 0.125312
0.205125 0.182750 0.142313
0.229687 0.204563 0.159313
0.254250 0.226375 0.176313
0.278813 0.248188 0.193312
0.303375 0.270000 0.210313
0.327937 0.291812 0.227313
0.352500 0.313625 0.244313
0.377062 0.335437 0.261313
0.401625 0.357250 0.278313
0.426188 0.379063 0.295313
0.450750 0.400875 0.312313
0.475313 0.422688 0.329313
0.499875 0.444500 0.346313
0.524438 0.466312 0.363313
0.549000 0.488125 0.380313
0.204063 0.182000 0.141688
0.228625 0.203813 0.158688
0.253188 0.225625 0.175687
0.277750 0.247438 0.192688
0.302312 0.269250 0.209688
0.326875 0.291063 0.226688
0.351438 0.312875 0.243688
0.376000 0.334687 0.260688
0.400563 0.356500 0.277688
0.425125 0.378312 0.294688
0.449688 0.400125 0.311688
0.474250 0.421938 0.328688
0.498812 0.443750 0.345688
0.523375 0.465563 0.362688
0.547938 0.487375 0.379688
0.572500 0.509187 0.396688
0.597063 0.531000 0.413688
0.252125 0.224875 0.175063
0.276688 0.246688 0.192063
0.301250 0.268500 0.209062
0.325813 0.290313 0.226062
0.350375 0.312125 0.243063
0.374938 0.333937 0.260063
0.399500 0.355750 0.277062
0.424063 0.377562 0.294063
0.448625 0.399375 0.311063
0.473187 0.421187 0.328063
0.497750 0.443000 0.345063
0.522313 0.464813 0.362063
0.546875 0.486625 0.379063
0.571438 0.508437 0.396063
0.596000 0.530250 0.413062
0.620563 0.552062 0.430063
0.645125 0.573875 0.447063
0.300187 0.267750 0.208437
0.324750 0.289563 0.225438
0.349313 0.311375 0.242438
0.373875 0.333188 0.259438
0.398438 0.355000 0.276438
0.423000 0.376813 0.293438
0.447562 0.398625 0.310438
0.472125 0.420438 0.327438
0.496688 0.442250 0.344438
0.521250 0.464063 0.361438
0.545813 0.485875 0.378438
0.570375 0.507687 0.395437
0.594938 0.529500 0.412438
0.619500 0.551312 0.429438
0.644062 0.573125 0.446438
0.668625 0.594937 0.463438
0.693188 0.616750 0.480438
0.348250 0.310625 0.241813
0.372812 0.332438 0.258813
0.397375 0.354250 0.275813
0.421938 0.376063 0.292813
0.446500 0.397875 0.309813
0.471062 0.419688 0.326813
0.495625 0.441500 0.343813
0.520188 0.463313 0.360813
0.544750 0.485125 0.377813
0.569312 0.506938 0.394813
0.593875 0.528750 0.411813
0.618437 0.550562 0.428813
0.643000 0.572375 0.445813
0.667563 0.594187 0.462813
0.692125 0.616000 0.479813
0.716688 0.637812 0.496813
0.741250 0.659625 0.513813
0.396313 0.353500 0.275188
0.420875 0.375313 0.292188
0.445438 0.397125 0.309188
0.470000 0.418938 0.326188
0.494563 0.440750 0.343188
0.519125 0.462563 0.360188
0.543687 0.484375 0.377188
0.568250 0.506188 0.394188
0.592812 0.528000 0.411188
0.617375 0.549813 0.428188
0.641938 0.571625 0.445188
0.666500 0.593437 0.462188
0.691063 0.615250 0.479188
0.715625 0.637062 0.496188
0.740187 0.658875 0.513188
0.764750 0.680687 0.530188
0.789313 0.702500 0.547188
0.444375 0.396375 0.308563
0.468938 0.418188 0.325563
0.493500 0.440000 0.342562
0.518062 0.461813 0.359563
0.542625 0.483625 0.376563
0.567188 0.505437 0.393563
0.591750 0.527250 0.410563
0.616313 0.549063 0.427563
0.640875 0.570875 0.444563
0.665438 0.592688 0.461563
0.690000 0.614500 0.478563
0.714562 0.636312 0.495563
0.739125 0.658125 0.512563
0.763688 0.679937 0.529563
0.788250 0.701750 0.546563
0.812813 0.723562 0.563562
0.837375 0.745375 0.580563
0.492438 0.439250 0.341938
0.517000 0.461063 0.358938
0.541563 0.482875 0.375938
0.566125 0.504687 0.392937
0.590688 0.526500 0.409938
0.615250 0.548312 0.426938
0.639813 0.570125 0.443937
0.664375 0.591938 0.460938
0.688937 0.613750 0.477938
0.713500 0.635563 0.494938
0.738063 0.657375 0.511938
0.762625 0.679187 0.528938
0.787188 0.701000 0.545937
0.811750 0.722812 0.562938
0.836313 0.744625 0.579937
0.860875 0.766437 0.596938
0.885438 0.788250 0.613938
0.540500 0.482125 0.375313
0.565063 0.503938 0.392313
0.589625 0.525750 0.409313
0.614187 0.547562 0.426313
0.638750 0.569375 0.443313
0.663312 0.591187 0.460313
0.687875 0.613000 0.477313
0.712438 0.634813 0.494313
0.737000 0.656625 0.511313
0.761562 0.678438 0.528313
0.786125 0.700250 0.545313
0.810688 0.722062 0.562312
0.835250 0.743875 0.579313
0.859812 0.765687 0.596313
0.884375 0.787500 0.613313
0.908937 0.809312 0.630313
0.933500 0.831125 0.647313
0.588562 0.525000 0.408688
0.613125 0.546813 0.425688
0.637687 0.568625 0.442688
0.662250 0.590438 0.459688
0.686813 0.612250 0.476688
0.711375 0.634062 0.493688
0.735938 0.655875 0.510688
0.760500 0.677687 0.527688
0.785062 0.699500 0.544687
0.809625 0.721313 0.561688
0.834187 0.743125 0.578688
0.858750 0.764938 0.595688
0.883312 0.786750 0.612688
0.907875 0.808563 0.629688
0.932438 0.830375 0.646688
0.957000 0.852187 0.663687
0.981563 0.874000 0.680688
0.636625 0.567875 0.442063
0.661188 0.589688 0.459063
0.685750 0.611500 0.476063
0.710313 0.633313 0.493063
0.734875 0.655125 0.510063
0.759437 0.676937 0.527062
0.784000 0.698750 0.544063
0.808563 0.720562 0.561063
0.833125 0.742375 0.578063
0.857687 0.764188 0.595063
0.882250 0.786000 0.612063
0.906813 0.807813 0.629063
0.931375 0.829625 0.646062
0.955937 0.851438 0.663063
0.980500 0.873250 0.680063
1.000000 0.895062 0.697063
1.000000 0.916875 0.714063
0.684688 0.610750 0.475438
0.709250 0.632563 0.492438
0.733812 0.654375 0.509438
0.758375 0.676188 0.526438
0.782938 0.698000 0.543438
0.807500 0.719812 0.560438
0.832063 0.741625 0.577438
0.856625 0.763437 0.594438
0.881188 0.785250 0.611438
0.905750 0.807063 0.628438
0.930312 0.828875 0.645438
0.954875 0.850688 0.662438
0.979437 0.872500 0.679438
1.000000 0.894313 0.696438
1.000000 0.916125 0.713438
1.000000 0.937937 0.730438
1.000000 0.959750 0.747438
0.732750 0.653625 0.508813
0.757313 0.675438 0.525813
0.781875 0.697250 0.542813
0.806438 0.719063 0.559813
0.831000 0.740875 0.576812
0.855563 0.762687 0.593812
0.880125 0.784500 0.610812
0.904688 0.806312 0.627812
0.929250 0.828125 0.644813
0.953812 0.849938 0.661813
0.978375 0.871750 0.678813
1.000000 0.893563 0.695812
1.000000 0.915375 0.712813
1.000000 0.937188 0.729812
1.000000 0.959000 0.746812
1.000000 0.980812 0.763813
1.000000 1.000000 0.780813
0.780813 0.696500 0.542188
0.805375 0.718313 0.559188
0.829937 0.740125 0.576188
0.854500 0.761938 0.593188
0.879063 0.783750 0.610188
0.903625 0.805562 0.627188
0.928188 0.827375 0.644188
0.952750 0.849187 0.661188
0.977313 0.871000 0.678188
1.000000 0.892813 0.695188
1.000000 0.914625 0.712188
1.000000 0.936438 0.729188
1.000000 0.958250 0.746188
1.000000 0.980063 0.763188
1.000000 1.000000 0.780188
1.000000 1.000000 0.797188
1.000000 1.000000 0.814188
0.023625 0.021000 0.016375
0.048188 0.042813 0.033375
0.072750 0.064625 0.050375
0.097312 0.086438 0.067375
0.121875 0.108250 0.084375
0.146437 0.130062 0.101375
0.171000 0.151875 0.118375
0.195563 0.173687 0.135375
0.220125 0.195500 0.152375
0.244688 0.217312 0.169375
0.269250 0.239125 0.186375
0.293813 0.260937 0.203375
0.318375 0.282750 0.220375
0.342938 0.304563 0.237375
0.367500 0.326375 0.254375
0.392063 0.348187 0.271375
0.416625 0.370000 0.288375
0.071688 0.063875 0.049750
0.096250 0.085688 0.066750
0.120813 0.107500 0.083750
0.145375 0.129312 0.100750
0.169938 0.151125 0.117750
0.194500 0.172937 0.134750
0.219063 0.194750 0.151750
0.243625 0.216562 0.168750
0.268188 0.238375 0.185750
0.292750 0.260188 0.202750
0.317312 0.282000 0.219750
0.341875 0.303812 0.236750
0.366438 0.325625 0.253750
0.391000 0.347438 0.270750
0.415563 0.369250 0.287750
0.440125 0.391062 0.304750
0.464688 0.412875 0.321750
0.119750 0.106750 0.083125
0.144313 0.128562 0.100125
0.168875 0.150375 0.117125
0.193438 0.172187 0.134125
0.218000 0.194000 0.151125
0.242563 0.215812 0.168125
0.267125 0.237625 0.185125
0.291688 0.259437 0.202125
0.316250 0.281250 0.219125
0.340813 0.303063 0.236125
0.365375 0.324875 0.253125
0.389938 0.346687 0.270125
0.414500 0.368500 0.287125
0.439063 0.390313 0.304125
0.463625 0.412125 0.321125
0.488188 0.433937 0.338125
0.512750 0.455750 0.355125
0.167813 0.149625 0.116500
0.192375 0.171437 0.133500
0.216938 0.193250 0.150500
0.241500 0.215063 0.167500
0.266062 0.236875 0.184500
0.290625 0.258688 0.201500
0.315188 0.280500 0.218500
0.339750 0.302312 0.235500
0.364313 0.324125 0.252500
0.388875 0.345938 0.269500
0.413438 0.367750 0.286500
0.438000 0.389563 0.303500
0.462562 0.411375 0.320500
0.487125 0.433188 0.337500
0.511688 0.455000 0.354500
0.536250 0.476812 0.371500
0.560813 0.498625 0.388500
0.215875 0.192500 0.149875
0.240438 0.214312 0.166875
0.265000 0.236125 0.183875
0.289563 0.257938 0.200875
0.314125 0.279750 0.217875
0.338688 0.301563 0.234875
0.363250 0.323375 0.251875
0.387813 0.345187 0.268875
0.412375 0.367000 0.285875
0.436937 0.388813 0.302875
0.461500 0.410625 0.319875
0.486063 0.432438 0.336875
0.510625 0.454250 0.353875
0.535188 0.476063 0.370875
0.559750 0.497875 0.387875
0.584313 0.519687 0.404875
0.608875 0.541500 0.421875
0.263937 0.235375 0.183250
0.288500 0.257188 0.200250
0.313063 0.279000 0.217250
0.337625 0.300813 0.234250
0.362187 0.322625 0.251250
0.386750 0.344438 0.268250
0.411313 0.366250 0.285250
0.435875 0.388062 0.302250
0.460438 0.409875 0.319250
0.485000 0.431688 0.336250
0.509563 0.453500 0.353250
0.534125 0.475313 0.370250
0.558688 0.497125 0.387250
0.583250 0.518938 0.404250
0.607813 0.540750 0.421250
0.632375 0.562562 0.438250
0.656938 0.584375 0.455250
0.312000 0.278250 0.216625
0.336562 0.300063 0.233625
0.361125 0.321875 0.250625
0.385688 0.343688 0.267625
0.410250 0.365500 0.284625
0.434812 0.387313 0.301625
0.459375 0.409125 0.318625
0.483938 0.430938 0.335625
0.508500 0.452750 0.352625
0.533062 0.474563 0.369625
0.557625 0.496375 0.386625
0.582188 0.518188 0.403625
0.606750 0.540000 0.420625
0.631312 0.561813 0.437625
0.655875 0.583625 0.454625
0.680438 0.605437 0.471625
0.705000 0.627250 0.488625
0.360063 0.321125 0.250000
0.384625 0.342938 0.267000
0.409188 0.364750 0.284000
0.433750 0.386563 0.301000
0.458313 0.408375 0.318000
0.482875 0.430188 0.335000
0.507437 0.452000 0.352000
0.532000 0.473813 0.369000
0.556563 0.495625 0.386000
0.581125 0.517437 0.403000
0.605688 0.539250 0.420000
0.630250 0.561063 0.437000
0.654813 0.582875 0.454000
0.679375 0.604688 0.471000
0.703938 0.626500 0.488000
0.728500 0.648312 0.505000
0.753062 0.670125 0.522000
0.408125 0.364000 0.283375
0.432688 0.385813 0.300375
0.457250 0.407625 0.317375
0.481813 0.429438 0.334375
0.506375 0.451250 0.351375
0.530938 0.473063 0.368375
0.555500 0.494875 0.385375
0.580063 0.516687 0.402375
0.604625 0.538500 0.419375
0.629188 0.560313 0.436375
0.653750 0.582125 0.453375
0.678313 0.603938 0.470375
0.702875 0.625750 0.487375
0.727437 0.647563 0.504375
0.752000 0.669375 0.521375
0.776563 0.691187 0.538375
0.801125 0.713000 0.555375
0.456188 0.406875 0.316750
0.480750 0.428688 0.333750
0.505313 0.450500 0.350750
0.529875 0.472313 0.367750
0.554438 0.494125 0.384750
0.579000 0.515938 0.401750
0.603563 0.537750 0.418750
0.628125 0.559563 0.435750
0.652688 0.581375 0.452750
0.677250 0.603188 0.469750
0.701813 0.625000 0.486750
0.726375 0.646813 0.503750
0.750938 0.668625 0.520750
0.775500 0.690438 0.537750
0.800063 0.712250 0.554750
0.824625 0.734062 0.571750
0.849187 0.755875 0.588750
0.504250 0.449750 0.350125
0.528813 0.471563 0.367125
0.553375 0.493375 0.384125
0.577937 0.515188 0.401125
0.602500 0.537000 0.418125
0.627063 0.558813 0.435125
0.651625 0.580625 0.452125
0.676188 0.602438 0.469125
0.700750 0.624250 0.486125
0.725313 0.646063 0.503125
0.749875 0.667875 0.520125
0.774438 0.689688 0.537125
0.799000 0.711500 0.554125
0.823562 0.733313 0.571125
0.848125 0.755125 0.588125
0.872688 0.776937 0.605125
0.897250 0.798750 0.622125
0.552312 0.492625 0.383500
0.576875 0.514437 0.400500
0.601437 0.536250 0.417500
0.626000 0.558063 0.434500
0.650562 0.579875 0.451500
0.675125 0.601688 0.468500
0.699688 0.623500 0.485500
0.724250 0.645313 0.502500
0.748812 0.667125 0.519500
0.773375 0.688938 0.536500
0.797937 0.710750 0.553500
0.822500 0.732563 0.570500
0.847063 0.754375 0.587500
0.871625 0.776188 0.604500
0.896188 0.798000 0.621500
0.920750 0.819812 0.638500
0.945312 0.841625 0.655500
0.600375 0.535500 0.416875
0.624938 0.557313 0.433875
0.649500 0.579125 0.450875
0.674063 0.600938 0.467875
0.698625 0.622750 0.484875
0.723187 0.644563 0.501875
0.747750 0.666375 0.518875
0.772312 0.688188 0.535875
0.796875 0.710000 0.552875
0.821438 0.731813 0.569875
0.846000 0.753625 0.586875
0.870563 0.775438 0.603875
0.895125 0.797250 0.620875
0.919687 0.819063 0.637875
0.944250 0.840875 0.654875
0.968813 0.862688 0.671875
0.993375 0.884500 0.688875
0.648438 0.578375 0.450250
0.673000 0.600188 0.467250
0.697562 0.622000 0.484250
0.722125 0.643813 0.501250
0.746687 0.665625 0.518250
0.771250 0.687438 0.535250
0.795813 0.709250 0.552250
0.820375 0.731063 0.569250
0.844938 0.752875 0.586250
0.869500 0.774688 0.603250
0.894062 0.796500 0.620250
0.918625 0.818313 0.637250
0.943188 0.840125 0.654250
0.967750 0.861938 0.671250
0.992313 0.883750 0.688250
1.000000 0.905563 0.705250
1.000000 0.927375 0.722250
0.696500 0.621250 0.483625
0.721063 0.643063 0.500625
0.745625 0.664875 0.517625
0.770188 0.686688 0.534625
0.794750 0.708500 0.551625
0.819312 0.730313 0.568625
0.843875 0.752125 0.585625
0.868437 0.773938 0.602625
0.893000 0.795750 0.619625
0.917563 0.817563 0.636625
0.942125 0.839375 0.653625
0.966688 0.861188 0.670625
0.991250 0.883000 0.687625
1.000000 0.904813 0.704625
1.000000 0.926625 0.721625
1.000000 0.948438 0.738625
1.000000 0.970250 0.755625
0.744563 0.664125 0.517000
0.769125 0.685938 0.534000
0.793687 0.707750 0.551000
0.818250 0.729563 0.568000
0.842812 0.751375 0.585000
0.867375 0.773188 0.602000
0.891938 0.795000 0.619000
0.916500 0.816813 0.636000
0.941063 0.838625 0.653000
0.965625 0.860438 0.670000
0.990187 0.882250 0.687000
1.000000 0.904063 0.704000
1.000000 0.925875 0.721000
1.000000 0.947688 0.738000
1.000000 0.969500 0.755000
1.000000 0.991313 0.772000
1.000000 1.000000 0.789000
0.792625 0.707000 0.550375
0.817188 0.728813 0.567375
0.841750 0.750625 0.584375
0.866313 0.772438 0.601375
0.890875 0.794250 0.618375
0.915438 0.816063 0.635375
0.940000 0.837875 0.652375
0.964562 0.859688 0.669375
0.989125 0.881500 0.686375
1.000000 0.903313 0.703375
1.000000 0.925125 0.720375
1.000000 0.946938 0.737375
1.000000 0.968750 0.754375
1.000000 0.990563 0.771375
1.000000 1.000000 0.788375
1.000000 1.000000 0.805375
1.000000 1.000000 0.822375
0.035437 0.031500 0.024563
0.060000 0.053312 0.041563
0.084562 0.075125 0.058563
0.109125 0.096937 0.075563
0.133688 0.118750 0.092563
0.158250 0.140562 0.109563
0.182812 0.162375 0.126563
0.207375 0.184187 0.143563
0.231938 0.206000 0.160562
0.256500 0.227813 0.177563
0.281062 0.249625 0.194563
0.305625 0.271437 0.211562
0.330188 0.293250 0.228563
0.354750 0.315063 0.245563
0.379313 0.336875 0.262563
0.403875 0.358687 0.279562
0.428438 0.380500 0.296563
0.083500 0.074375 0.057938
0.108062 0.096188 0.074938
