Apps/PeekLUT/Resources/SampleLUTs/Sepia.cube
TITLE "Sepia 17"
LUT_3D_SIZE 5
DOMAIN_MIN 0.0 0.0 0.0
DOMAIN_MAX 1.0 1.0 1.0
0.000000 0.000000 0.000000
0.098250 0.087250 0.068000
0.196500 0.174500 0.136000
0.294750 0.261750 0.204000
0.393000 0.349000 0.272000
0.192250 0.171500 0.133500
0.290500 0.258750 0.201500
0.388750 0.346000 0.269500
0.487000 0.433250 0.337500
0.585250 0.520500 0.405500
0.384500 0.343000 0.267000
0.482750 0.430250 0.335000
0.581000 0.517500 0.403000
0.679250 0.604750 0.471000
0.777500 0.692000 0.539000
0.576750 0.514500 0.400500
0.675000 0.601750 0.468500
0.773250 0.689000 0.536500
0.871500 0.776250 0.604500
0.969750 0.863500 0.672500
0.769000 0.686000 0.534000
0.867250 0.773250 0.602000
0.965500 0.860500 0.670000
1.000000 0.947750 0.738000
1.000000 1.000000 0.806000
0.047250 0.042000 0.032750
0.145500 0.129250 0.100750
0.243750 0.216500 0.168750
0.342000 0.303750 0.236750
0.440250 0.391000 0.304750
0.239500 0.213500 0.166250
0.337750 0.300750 0.234250
0.436000 0.388000 0.302250
0.534250 0.475250 0.370250
0.632500 0.562500 0.438250
0.431750 0.385000 0.299750
0.530000 0.472250 0.367750
0.628250 0.559500 0.435750
0.726500 0.646750 0.503750
0.824750 0.734000 0.571750
0.624000 0.556500 0.433250
0.722250 0.643750 0.501250
0.820500 0.731000 0.569250
0.918750 0.818250 0.637250
1.000000 0.905500 0.705250
0.816250 0.728000 0.566750
0.914500 0.815250 0.634750
1.000000 0.902500 0.702750
1.000000 0.989750 0.770750
1.000000 1.000000 0.838750
0.094500 0.084000 0.065500
0.192750 0.171250 0.133500
0.291000 0.258500 0.201500
0.389250 0.345750 0.269500
0.487500 0.433000 0.337500
0.286750 0.255500 0.199000
0.385000 0.342750 0.267000
0.483250 0.430000 0.335000
0.581500 0.517250 0.403000
0.679750 0.604500 0.471000
0.479000 0.427000 0.332500
0.577250 0.514250 0.400500
0.675500 0.601500 0.468500
0.773750 0.688750 0.536500
0.872000 0.776000 0.604500
0.671250 0.598500 0.466000
0.769500 0.685750 0.534000
0.867750 0.773000 0.602000
0.966000 0.860250 0.670000
1.000000 0.947500 0.738000
0.863500 0.770000 0.599500
0.961750 0.857250 0.667500
1.000000 0.944500 0.735500
1.000000 1.000000 0.803500
1.000000 1.000000 0.871500
0.141750 0.126000 0.098250
0.240000 0.213250 0.166250
0.338250 0.300500 0.234250
0.436500 0.387750 0.302250
0.534750 0.475000 0.370250
0.334000 0.297500 0.231750
0.432250 0.384750 0.299750
0.530500 0.472000 0.367750
0.628750 0.559250 0.435750
0.727000 0.646500 0.503750
0.526250 0.469000 0.365250
0.624500 0.556250 0.433250
0.722750 0.643500 0.501250
0.821000 0.730750 0.569250
0.919250 0.818000 0.637250
0.718500 0.640500 0.498750
0.816750 0.727750 0.566750
0.915000 0.815000 0.634750
1.000000 0.902250 0.702750
1.000000 0.989500 0.770750
0.910750 0.812000 0.632250
1.000000 0.899250 0.700250
1.000000 0.986500 0.768250
1.000000 1.000000 0.836250
1.000000 1.000000 0.904250
0.189000 0.168000 0.131000
0.287250 0.255250 0.199000
0.385500 0.342500 0.267000
0.483750 0.429750 0.335000
0.582000 0.517000 0.403000
0.381250 0.339500 0.264500
0.479500 0.426750 0.332500
0.577750 0.514000 0.400500
0.676000 0.601250 0.468500
0.774250 0.688500 0.536500
0.573500 0.511000 0.398000
0.671750 0.598250 0.466000
0.770000 0.685500 0.534000
0.868250 0.772750 0.602000
0.966500 0.860000 0.670000
0.765750 0.682500 0.531500
0.864000 0.769750 0.599500
0.962250 0.857000 0.667500
1.000000 0.944250 0.735500
1.000000 1.000000 0.803500
0.958000 0.854000 0.665000
1.000000 0.941250 0.733000
1.000000 1.000000 0.801000
1.000000 1.000000 0.869000
1.000000 1.000000 0.937000
