Apps/PeekLUT/Resources/SampleLUTs/Sepia.cube
TITLE "Sepia 17"
LUT_3D_SIZE 9
DOMAIN_MIN 0.0 0.0 0.0
DOMAIN_MAX 1.0 1.0 1.0
0.000000 0.000000 0.000000
0.049125 0.043625 0.034000
0.098250 0.087250 0.068000
0.147375 0.130875 0.102000
0.196500 0.174500 0.136000
0.245625 0.218125 0.170000
0.294750 0.261750 0.204000
0.343875 0.305375 0.238000
0.393000 0.349000 0.272000
0.096125 0.085750 0.066750
0.145250 0.129375 0.100750
0.194375 0.173000 0.134750
0.243500 0.216625 0.168750
0.292625 0.260250 0.202750
0.341750 0.303875 0.236750
0.390875 0.347500 0.270750
0.440000 0.391125 0.304750
0.489125 0.434750 0.338750
0.192250 0.171500 0.133500
0.241375 0.215125 0.167500
0.290500 0.258750 0.201500
0.339625 0.302375 0.235500
0.388750 0.346000 0.269500
0.437875 0.389625 0.303500
0.487000 0.433250 0.337500
0.536125 0.476875 0.371500
0.585250 0.520500 0.405500
0.288375 0.257250 0.200250
0.337500 0.300875 0.234250
0.386625 0.344500 0.268250
0.435750 0.388125 0.302250
0.484875 0.431750 0.336250
0.534000 0.475375 0.370250
0.583125 0.519000 0.404250
0.632250 0.562625 0.438250
0.681375 0.606250 0.472250
0.384500 0.343000 0.267000
0.433625 0.386625 0.301000
0.482750 0.430250 0.335000
0.531875 0.473875 0.369000
0.581000 0.517500 0.403000
0.630125 0.561125 0.437000
0.679250 0.604750 0.471000
0.728375 0.648375 0.505000
0.777500 0.692000 0.539000
0.480625 0.428750 0.333750
0.529750 0.472375 0.367750
0.578875 0.516000 0.401750
0.628000 0.559625 0.435750
0.677125 0.603250 0.469750
0.726250 0.646875 0.503750
0.775375 0.690500 0.537750
0.824500 0.734125 0.571750
0.873625 0.777750 0.605750
0.576750 0.514500 0.400500
0.625875 0.558125 0.434500
0.675000 0.601750 0.468500
0.724125 0.645375 0.502500
0.773250 0.689000 0.536500
0.822375 0.732625 0.570500
0.871500 0.776250 0.604500
0.920625 0.819875 0.638500
0.969750 0.863500 0.672500
0.672875 0.600250 0.467250
0.722000 0.643875 0.501250
0.771125 0.687500 0.535250
0.820250 0.731125 0.569250
0.869375 0.774750 0.603250
0.918500 0.818375 0.637250
0.967625 0.862000 0.671250
1.000000 0.905625 0.705250
1.000000 0.949250 0.739250
0.769000 0.686000 0.534000
0.818125 0.729625 0.568000
0.867250 0.773250 0.602000
0.916375 0.816875 0.636000
0.965500 0.860500 0.670000
1.000000 0.904125 0.704000
1.000000 0.947750 0.738000
1.000000 0.991375 0.772000
1.000000 1.000000 0.806000
0.023625 0.021000 0.016375
0.072750 0.064625 0.050375
0.121875 0.108250 0.084375
0.171000 0.151875 0.118375
0.220125 0.195500 0.152375
0.269250 0.239125 0.186375
0.318375 0.282750 0.220375
0.367500 0.326375 0.254375
0.416625 0.370000 0.288375
0.119750 0.106750 0.083125
0.168875 0.150375 0.117125
0.218000 0.194000 0.151125
0.267125 0.237625 0.185125
0.316250 0.281250 0.219125
0.365375 0.324875 0.253125
0.414500 0.368500 0.287125
0.463625 0.412125 0.321125
0.512750 0.455750 0.355125
0.215875 0.192500 0.149875
0.265000 0.236125 0.183875
0.314125 0.279750 0.217875
0.363250 0.323375 0.251875
0.412375 0.367000 0.285875
0.461500 0.410625 0.319875
0.510625 0.454250 0.353875
0.559750 0.497875 0.387875
0.608875 0.541500 0.421875
0.312000 0.278250 0.216625
0.361125 0.321875 0.250625
0.410250 0.365500 0.284625
0.459375 0.409125 0.318625
0.508500 0.452750 0.352625
0.557625 0.496375 0.386625
0.606750 0.540000 0.420625
0.655875 0.583625 0.454625
0.705000 0.627250 0.488625
0.408125 0.364000 0.283375
0.457250 0.407625 0.317375
0.506375 0.451250 0.351375
0.555500 0.494875 0.385375
0.604625 0.538500 0.419375
0.653750 0.582125 0.453375
0.702875 0.625750 0.487375
0.752000 0.669375 0.521375
0.801125 0.713000 0.555375
0.504250 0.449750 0.350125
0.553375 0.493375 0.384125
0.602500 0.537000 0.418125
0.651625 0.580625 0.452125
0.700750 0.624250 0.486125
0.749875 0.667875 0.520125
0.799000 0.711500 0.554125
0.848125 0.755125 0.588125
0.897250 0.798750 0.622125
0.600375 0.535500 0.416875
0.649500 0.579125 0.450875
0.698625 0.622750 0.484875
0.747750 0.666375 0.518875
0.796875 0.710000 0.552875
0.846000 0.753625 0.586875
0.895125 0.797250 0.620875
0.944250 0.840875 0.654875
0.993375 0.884500 0.688875
0.696500 0.621250 0.483625
0.745625 0.664875 0.517625
0.794750 0.708500 0.551625
0.843875 0.752125 0.585625
0.893000 0.795750 0.619625
0.942125 0.839375 0.653625
0.991250 0.883000 0.687625
1.000000 0.926625 0.721625
1.000000 0.970250 0.755625
0.792625 0.707000 0.550375
0.841750 0.750625 0.584375
0.890875 0.794250 0.618375
0.940000 0.837875 0.652375
0.989125 0.881500 0.686375
1.000000 0.925125 0.720375
1.000000 0.968750 0.754375
1.000000 1.000000 0.788375
1.000000 1.000000 0.822375
0.047250 0.042000 0.032750
0.096375 0.085625 0.066750
0.145500 0.129250 0.100750
0.194625 0.172875 0.134750
0.243750 0.216500 0.168750
0.292875 0.260125 0.202750
0.342000 0.303750 0.236750
0.391125 0.347375 0.270750
0.440250 0.391000 0.304750
0.143375 0.127750 0.099500
0.192500 0.171375 0.133500
0.241625 0.215000 0.167500
0.290750 0.258625 0.201500
0.339875 0.302250 0.235500
0.389000 0.345875 0.269500
0.438125 0.389500 0.303500
0.487250 0.433125 0.337500
0.536375 0.476750 0.371500
0.239500 0.213500 0.166250
0.288625 0.257125 0.200250
0.337750 0.300750 0.234250
0.386875 0.344375 0.268250
0.436000 0.388000 0.302250
0.485125 0.431625 0.336250
0.534250 0.475250 0.370250
0.583375 0.518875 0.404250
0.632500 0.562500 0.438250
0.335625 0.299250 0.233000
0.384750 0.342875 0.267000
0.433875 0.386500 0.301000
0.483000 0.430125 0.335000
0.532125 0.473750 0.369000
0.581250 0.517375 0.403000
0.630375 0.561000 0.437000
0.679500 0.604625 0.471000
0.728625 0.648250 0.505000
0.431750 0.385000 0.299750
0.480875 0.428625 0.333750
0.530000 0.472250 0.367750
0.579125 0.515875 0.401750
0.628250 0.559500 0.435750
0.677375 0.603125 0.469750
0.726500 0.646750 0.503750
0.775625 0.690375 0.537750
0.824750 0.734000 0.571750
0.527875 0.470750 0.366500
0.577000 0.514375 0.400500
0.626125 0.558000 0.434500
0.675250 0.601625 0.468500
0.724375 0.645250 0.502500
0.773500 0.688875 0.536500
0.822625 0.732500 0.570500
0.871750 0.776125 0.604500
0.920875 0.819750 0.638500
0.624000 0.556500 0.433250
0.673125 0.600125 0.467250
0.722250 0.643750 0.501250
0.771375 0.687375 0.535250
0.820500 0.731000 0.569250
0.869625 0.774625 0.603250
0.918750 0.818250 0.637250
0.967875 0.861875 0.671250
1.000000 0.905500 0.705250
0.720125 0.642250 0.500000
0.769250 0.685875 0.534000
0.818375 0.729500 0.568000
0.867500 0.773125 0.602000
0.916625 0.816750 0.636000
0.965750 0.860375 0.670000
1.000000 0.904000 0.704000
1.000000 0.947625 0.738000
1.000000 0.991250 0.772000
0.816250 0.728000 0.566750
0.865375 0.771625 0.600750
0.914500 0.815250 0.634750
0.963625 0.858875 0.668750
1.000000 0.902500 0.702750
1.000000 0.946125 0.736750
1.000000 0.989750 0.770750
1.000000 1.000000 0.804750
1.000000 1.000000 0.838750
0.070875 0.063000 0.049125
0.120000 0.106625 0.083125
0.169125 0.150250 0.117125
0.218250 0.193875 0.151125
0.267375 0.237500 0.185125
0.316500 0.281125 0.219125
0.365625 0.324750 0.253125
0.414750 0.368375 0.287125
0.463875 0.412000 0.321125
0.167000 0.148750 0.115875
0.216125 0.192375 0.149875
0.265250 0.236000 0.183875
0.314375 0.279625 0.217875
0.363500 0.323250 0.251875
0.412625 0.366875 0.285875
0.461750 0.410500 0.319875
0.510875 0.454125 0.353875
0.560000 0.497750 0.387875
0.263125 0.234500 0.182625
0.312250 0.278125 0.216625
0.361375 0.321750 0.250625
0.410500 0.365375 0.284625
0.459625 0.409000 0.318625
0.508750 0.452625 0.352625
0.557875 0.496250 0.386625
0.607000 0.539875 0.420625
0.656125 0.583500 0.454625
0.359250 0.320250 0.249375
0.408375 0.363875 0.283375
0.457500 0.407500 0.317375
0.506625 0.451125 0.351375
0.555750 0.494750 0.385375
0.604875 0.538375 0.419375
0.654000 0.582000 0.453375
0.703125 0.625625 0.487375
0.752250 0.669250 0.521375
0.455375 0.406000 0.316125
0.504500 0.449625 0.350125
0.553625 0.493250 0.384125
0.602750 0.536875 0.418125
0.651875 0.580500 0.452125
0.701000 0.624125 0.486125
0.750125 0.667750 0.520125
0.799250 0.711375 0.554125
0.848375 0.755000 0.588125
0.551500 0.491750 0.382875
0.600625 0.535375 0.416875
0.649750 0.579000 0.450875
0.698875 0.622625 0.484875
0.748000 0.666250 0.518875
0.797125 0.709875 0.552875
0.846250 0.753500 0.586875
0.895375 0.797125 0.620875
0.944500 0.840750 0.654875
0.647625 0.577500 0.449625
0.696750 0.621125 0.483625
0.745875 0.664750 0.517625
0.795000 0.708375 0.551625
0.844125 0.752000 0.585625
0.893250 0.795625 0.619625
0.942375 0.839250 0.653625
0.991500 0.882875 0.687625
1.000000 0.926500 0.721625
0.743750 0.663250 0.516375
0.792875 0.706875 0.550375
0.842000 0.750500 0.584375
0.891125 0.794125 0.618375
0.940250 0.837750 0.652375
0.989375 0.881375 0.686375
1.000000 0.925000 0.720375
1.000000 0.968625 0.754375
1.000000 1.000000 0.788375
0.839875 0.749000 0.583125
0.889000 0.792625 0.617125
0.938125 0.836250 0.651125
0.987250 0.879875 0.685125
1.000000 0.923500 0.719125
1.000000 0.967125 0.753125
1.000000 1.000000 0.787125
1.000000 1.000000 0.821125
1.000000 1.000000 0.855125
0.094500 0.084000 0.065500
0.143625 0.127625 0.099500
0.192750 0.171250 0.133500
0.241875 0.214875 0.167500
0.291000 0.258500 0.201500
0.340125 0.302125 0.235500
0.389250 0.345750 0.269500
0.438375 0.389375 0.303500
0.487500 0.433000 0.337500
0.190625 0.169750 0.132250
0.239750 0.213375 0.166250
0.288875 0.257000 0.200250
0.338000 0.300625 0.234250
0.387125 0.344250 0.268250
0.436250 0.387875 0.302250
0.485375 0.431500 0.336250
0.534500 0.475125 0.370250
0.583625 0.518750 0.404250
0.286750 0.255500 0.199000
0.335875 0.299125 0.233000
0.385000 0.342750 0.267000
0.434125 0.386375 0.301000
0.483250 0.430000 0.335000
0.532375 0.473625 0.369000
0.581500 0.517250 0.403000
0.630625 0.560875 0.437000
0.679750 0.604500 0.471000
0.382875 0.341250 0.265750
0.432000 0.384875 0.299750
0.481125 0.428500 0.333750
0.530250 0.472125 0.367750
0.579375 0.515750 0.401750
0.628500 0.559375 0.435750
0.677625 0.603000 0.469750
0.726750 0.646625 0.503750
0.775875 0.690250 0.537750
0.479000 0.427000 0.332500
0.528125 0.470625 0.366500
0.577250 0.514250 0.400500
0.626375 0.557875 0.434500
0.675500 0.601500 0.468500
0.724625 0.645125 0.502500
0.773750 0.688750 0.536500
0.822875 0.732375 0.570500
0.872000 0.776000 0.604500
0.575125 0.512750 0.399250
0.624250 0.556375 0.433250
0.673375 0.600000 0.467250
0.722500 0.643625 0.501250
0.771625 0.687250 0.535250
0.820750 0.730875 0.569250
0.869875 0.774500 0.603250
0.919000 0.818125 0.637250
0.968125 0.861750 0.671250
0.671250 0.598500 0.466000
0.720375 0.642125 0.500000
0.769500 0.685750 0.534000
0.818625 0.729375 0.568000
0.867750 0.773000 0.602000
0.916875 0.816625 0.636000
0.966000 0.860250 0.670000
1.000000 0.903875 0.704000
1.000000 0.947500 0.738000
0.767375 0.684250 0.532750
0.816500 0.727875 0.566750
0.865625 0.771500 0.600750
0.914750 0.815125 0.634750
0.963875 0.858750 0.668750
1.000000 0.902375 0.702750
1.000000 0.946000 0.736750
1.000000 0.989625 0.770750
1.000000 1.000000 0.804750
0.863500 0.770000 0.599500
0.912625 0.813625 0.633500
0.961750 0.857250 0.667500
1.000000 0.900875 0.701500
1.000000 0.944500 0.735500
1.000000 0.988125 0.769500
1.000000 1.000000 0.803500
1.000000 1.000000 0.837500
1.000000 1.000000 0.871500
0.118125 0.105000 0.081875
0.167250 0.148625 0.115875
0.216375 0.192250 0.149875
0.265500 0.235875 0.183875
0.314625 0.279500 0.217875
0.363750 0.323125 0.251875
0.412875 0.366750 0.285875
0.462000 0.410375 0.319875
0.511125 0.454000 0.353875
0.214250 0.190750 0.148625
0.263375 0.234375 0.182625
0.312500 0.278000 0.216625
0.361625 0.321625 0.250625
0.410750 0.365250 0.284625
0.459875 0.408875 0.318625
0.509000 0.452500 0.352625
0.558125 0.496125 0.386625
0.607250 0.539750 0.420625
0.310375 0.276500 0.215375
0.359500 0.320125 0.249375
0.408625 0.363750 0.283375
0.457750 0.407375 0.317375
0.506875 0.451000 0.351375
0.556000 0.494625 0.385375
0.605125 0.538250 0.419375
0.654250 0.581875 0.453375
0.703375 0.625500 0.487375
0.406500 0.362250 0.282125
0.455625 0.405875 0.316125
0.504750 0.449500 0.350125
0.553875 0.493125 0.384125
0.603000 0.536750 0.418125
0.652125 0.580375 0.452125
0.701250 0.624000 0.486125
0.750375 0.667625 0.520125
0.799500 0.711250 0.554125
0.502625 0.448000 0.348875
0.551750 0.491625 0.382875
0.600875 0.535250 0.416875
0.650000 0.578875 0.450875
0.699125 0.622500 0.484875
0.748250 0.666125 0.518875
0.797375 0.709750 0.552875
0.846500 0.753375 0.586875
0.895625 0.797000 0.620875
0.598750 0.533750 0.415625
0.647875 0.577375 0.449625
0.697000 0.621000 0.483625
0.746125 0.664625 0.517625
0.795250 0.708250 0.551625
0.844375 0.751875 0.585625
0.893500 0.795500 0.619625
0.942625 0.839125 0.653625
0.991750 0.882750 0.687625
0.694875 0.619500 0.482375
0.744000 0.663125 0.516375
0.793125 0.706750 0.550375
0.842250 0.750375 0.584375
0.891375 0.794000 0.618375
0.940500 0.837625 0.652375
0.989625 0.881250 0.686375
1.000000 0.924875 0.720375
1.000000 0.968500 0.754375
0.791000 0.705250 0.549125
0.840125 0.748875 0.583125
0.889250 0.792500 0.617125
0.938375 0.836125 0.651125
0.987500 0.879750 0.685125
1.000000 0.923375 0.719125
1.000000 0.967000 0.753125
1.000000 1.000000 0.787125
1.000000 1.000000 0.821125
0.887125 0.791000 0.615875
0.936250 0.834625 0.649875
0.985375 0.878250 0.683875
1.000000 0.921875 0.717875
1.000000 0.965500 0.751875
1.000000 1.000000 0.785875
1.000000 1.000000 0.819875
1.000000 1.000000 0.853875
1.000000 1.000000 0.887875
0.141750 0.126000 0.098250
0.190875 0.169625 0.132250
0.240000 0.213250 0.166250
0.289125 0.256875 0.200250
0.338250 0.300500 0.234250
0.387375 0.344125 0.268250
0.436500 0.387750 0.302250
0.485625 0.431375 0.336250
0.534750 0.475000 0.370250
0.237875 0.211750 0.165000
0.287000 0.255375 0.199000
0.336125 0.299000 0.233000
0.385250 0.342625 0.267000
0.434375 0.386250 0.301000
0.483500 0.429875 0.335000
0.532625 0.473500 0.369000
0.581750 0.517125 0.403000
0.630875 0.560750 0.437000
0.334000 0.297500 0.231750
0.383125 0.341125 0.265750
0.432250 0.384750 0.299750
0.481375 0.428375 0.333750
0.530500 0.472000 0.367750
0.579625 0.515625 0.401750
0.628750 0.559250 0.435750
0.677875 0.602875 0.469750
0.727000 0.646500 0.503750
0.430125 0.383250 0.298500
0.479250 0.426875 0.332500
0.528375 0.470500 0.366500
0.577500 0.514125 0.400500
0.626625 0.557750 0.434500
0.675750 0.601375 0.468500
0.724875 0.645000 0.502500
0.774000 0.688625 0.536500
0.823125 0.732250 0.570500
0.526250 0.469000 0.365250
0.575375 0.512625 0.399250
0.624500 0.556250 0.433250
0.673625 0.599875 0.467250
0.722750 0.643500 0.501250
0.771875 0.687125 0.535250
0.821000 0.730750 0.569250
0.870125 0.774375 0.603250
0.919250 0.818000 0.637250
0.622375 0.554750 0.432000
0.671500 0.598375 0.466000
0.720625 0.642000 0.500000
0.769750 0.685625 0.534000
0.818875 0.729250 0.568000
0.868000 0.772875 0.602000
0.917125 0.816500 0.636000
0.966250 0.860125 0.670000
1.000000 0.903750 0.704000
0.718500 0.640500 0.498750
0.767625 0.684125 0.532750
0.816750 0.727750 0.566750
0.865875 0.771375 0.600750
0.915000 0.815000 0.634750
0.964125 0.858625 0.668750
1.000000 0.902250 0.702750
1.000000 0.945875 0.736750
1.000000 0.989500 0.770750
0.814625 0.726250 0.565500
0.863750 0.769875 0.599500
0.912875 0.813500 0.633500
0.962000 0.857125 0.667500
1.000000 0.900750 0.701500
1.000000 0.944375 0.735500
1.000000 0.988000 0.769500
1.000000 1.000000 0.803500
1.000000 1.000000 0.837500
0.910750 0.812000 0.632250
0.959875 0.855625 0.666250
1.000000 0.899250 0.700250
1.000000 0.942875 0.734250
1.000000 0.986500 0.768250
1.000000 1.000000 0.802250
1.000000 1.000000 0.836250
1.000000 1.000000 0.870250
1.000000 1.000000 0.904250
0.165375 0.147000 0.114625
0.214500 0.190625 0.148625
0.263625 0.234250 0.182625
0.312750 0.277875 0.216625
0.361875 0.321500 0.250625
0.411000 0.365125 0.284625
0.460125 0.408750 0.318625
0.509250 0.452375 0.352625
0.558375 0.496000 0.386625
0.261500 0.232750 0.181375
0.310625 0.276375 0.215375
0.359750 0.320000 0.249375
0.408875 0.363625 0.283375
0.458000 0.407250 0.317375
0.507125 0.450875 0.351375
0.556250 0.494500 0.385375
0.605375 0.538125 0.419375
0.654500 0.581750 0.453375
0.357625 0.318500 0.248125
0.406750 0.362125 0.282125
0.455875 0.405750 0.316125
0.505000 0.449375 0.350125
0.554125 0.493000 0.384125
0.603250 0.536625 0.418125
0.652375 0.580250 0.452125
0.701500 0.623875 0.486125
0.750625 0.667500 0.520125
0.453750 0.404250 0.314875
0.502875 0.447875 0.348875
0.552000 0.491500 0.382875
0.601125 0.535125 0.416875
0.650250 0.578750 0.450875
0.699375 0.622375 0.484875
0.748500 0.666000 0.518875
0.797625 0.709625 0.552875
0.846750 0.753250 0.586875
0.549875 0.490000 0.381625
0.599000 0.533625 0.415625
0.648125 0.577250 0.449625
0.697250 0.620875 0.483625
0.746375 0.664500 0.517625
0.795500 0.708125 0.551625
0.844625 0.751750 0.585625
0.893750 0.795375 0.619625
0.942875 0.839000 0.653625
0.646000 0.575750 0.448375
0.695125 0.619375 0.482375
0.744250 0.663000 0.516375
0.793375 0.706625 0.550375
0.842500 0.750250 0.584375
0.891625 0.793875 0.618375
0.940750 0.837500 0.652375
0.989875 0.881125 0.686375
1.000000 0.924750 0.720375
0.742125 0.661500 0.515125
0.791250 0.705125 0.549125
0.840375 0.748750 0.583125
0.889500 0.792375 0.617125
0.938625 0.836000 0.651125
0.987750 0.879625 0.685125
1.000000 0.923250 0.719125
1.000000 0.966875 0.753125
1.000000 1.000000 0.787125
0.838250 0.747250 0.581875
0.887375 0.790875 0.615875
0.936500 0.834500 0.649875
0.985625 0.878125 0.683875
1.000000 0.921750 0.717875
1.000000 0.965375 0.751875
1.000000 1.000000 0.785875
1.000000 1.000000 0.819875
1.000000 1.000000 0.853875
0.934375 0.833000 0.648625
0.983500 0.876625 0.682625
1.000000 0.920250 0.716625
1.000000 0.963875 0.750625
1.000000 1.000000 0.784625
1.000000 1.000000 0.818625
1.000000 1.000000 0.852625
1.000000 1.000000 0.886625
1.000000 1.000000 0.920625
0.189000 0.168000 0.131000
0.238125 0.211625 0.165000
0.287250 0.255250 0.199000
0.336375 0.298875 0.233000
0.385500 0.342500 0.267000
0.434625 0.386125 0.301000
0.483750 0.429750 0.335000
0.532875 0.473375 0.369000
0.582000 0.517000 0.403000
0.285125 0.253750 0.197750
0.334250 0.297375 0.231750
0.383375 0.341000 0.265750
0.432500 0.384625 0.299750
0.481625 0.428250 0.333750
0.530750 0.471875 0.367750
0.579875 0.515500 0.401750
0.629000 0.559125 0.435750
0.678125 0.602750 0.469750
0.381250 0.339500 0.264500
0.430375 0.383125 0.298500
0.479500 0.426750 0.332500
0.528625 0.470375 0.366500
0.577750 0.514000 0.400500
0.626875 0.557625 0.434500
0.676000 0.601250 0.468500
0.725125 0.644875 0.502500
0.774250 0.688500 0.536500
0.477375 0.425250 0.331250
0.526500 0.468875 0.365250
0.575625 0.512500 0.399250
0.624750 0.556125 0.433250
0.673875 0.599750 0.467250
0.723000 0.643375 0.501250
0.772125 0.687000 0.535250
0.821250 0.730625 0.569250
0.870375 0.774250 0.603250
0.573500 0.511000 0.398000
0.622625 0.554625 0.432000
0.671750 0.598250 0.466000
0.720875 0.641875 0.500000
0.770000 0.685500 0.534000
0.819125 0.729125 0.568000
0.868250 0.772750 0.602000
0.917375 0.816375 0.636000
0.966500 0.860000 0.670000
0.669625 0.596750 0.464750
0.718750 0.640375 0.498750
0.767875 0.684000 0.532750
0.817000 0.727625 0.566750
0.866125 0.771250 0.600750
0.915250 0.814875 0.634750
0.964375 0.858500 0.668750
1.000000 0.902125 0.702750
1.000000 0.945750 0.736750
0.765750 0.682500 0.531500
0.814875 0.726125 0.565500
0.864000 0.769750 0.599500
0.913125 0.813375 0.633500
0.962250 0.857000 0.667500
1.000000 0.900625 0.701500
1.000000 0.944250 0.735500
1.000000 0.987875 0.769500
1.000000 1.000000 0.803500
0.861875 0.768250 0.598250
0.911000 0.811875 0.632250
0.960125 0.855500 0.666250
1.000000 0.899125 0.700250
1.000000 0.942750 0.734250
1.000000 0.986375 0.768250
1.000000 1.000000 0.802250
1.000000 1.000000 0.836250
1.000000 1.000000 0.870250
0.958000 0.854000 0.665000
1.000000 0.897625 0.699000
1.000000 0.941250 0.733000
1.000000 0.984875 0.767000
1.000000 1.000000 0.801000
1.000000 1.000000 0.835000
1.000000 1.000000 0.869000
1.000000 1.000000 0.903000
1.000000 1.000000 0.937000
