Apps/PeekLUT/Resources/SampleLUTs/Warm.cube
TITLE "Warm 17"
LUT_3D_SIZE 9
DOMAIN_MIN 0.0 0.0 0.0
DOMAIN_MAX 1.0 1.0 1.0
0.020000 0.000000 0.000000
0.157500 0.000000 0.000000
0.295000 0.000000 0.000000
0.432500 0.000000 0.000000
0.570000 0.000000 0.000000
0.707500 0.000000 0.000000
0.845000 0.000000 0.000000
0.982500 0.000000 0.000000
1.000000 0.000000 0.000000
0.020000 0.128750 0.000000
0.157500 0.128750 0.000000
0.295000 0.128750 0.000000
0.432500 0.128750 0.000000
0.570000 0.128750 0.000000
0.707500 0.128750 0.000000
0.845000 0.128750 0.000000
0.982500 0.128750 0.000000
1.000000 0.128750 0.000000
0.020000 0.257500 0.000000
0.157500 0.257500 0.000000
0.295000 0.257500 0.000000
0.432500 0.257500 0.000000
0.570000 0.257500 0.000000
0.707500 0.257500 0.000000
0.845000 0.257500 0.000000
0.982500 0.257500 0.000000
1.000000 0.257500 0.000000
0.020000 0.386250 0.000000
0.157500 0.386250 0.000000
0.295000 0.386250 0.000000
0.432500 0.386250 0.000000
0.570000 0.386250 0.000000
0.707500 0.386250 0.000000
0.845000 0.386250 0.000000
0.982500 0.386250 0.000000
1.000000 0.386250 0.000000
0.020000 0.515000 0.000000
0.157500 0.515000 0.000000
0.295000 0.515000 0.000000
0.432500 0.515000 0.000000
0.570000 0.515000 0.000000
0.707500 0.515000 0.000000
0.845000 0.515000 0.000000
0.982500 0.515000 0.000000
1.000000 0.515000 0.000000
0.020000 0.643750 0.000000
0.157500 0.643750 0.000000
0.295000 0.643750 0.000000
0.432500 0.643750 0.000000
0.570000 0.643750 0.000000
0.707500 0.643750 0.000000
0.845000 0.643750 0.000000
0.982500 0.643750 0.000000
1.000000 0.643750 0.000000
0.020000 0.772500 0.000000
0.157500 0.772500 0.000000
0.295000 0.772500 0.000000
0.432500 0.772500 0.000000
0.570000 0.772500 0.000000
0.707500 0.772500 0.000000
0.845000 0.772500 0.000000
0.982500 0.772500 0.000000
1.000000 0.772500 0.000000
0.020000 0.901250 0.000000
0.157500 0.901250 0.000000
0.295000 0.901250 0.000000
0.432500 0.901250 0.000000
0.570000 0.901250 0.000000
0.707500 0.901250 0.000000
0.845000 0.901250 0.000000
0.982500 0.901250 0.000000
1.000000 0.901250 0.000000
0.020000 1.000000 0.000000
0.157500 1.000000 0.000000
0.295000 1.000000 0.000000
0.432500 1.000000 0.000000
0.570000 1.000000 0.000000
0.707500 1.000000 0.000000
0.845000 1.000000 0.000000
0.982500 1.000000 0.000000
1.000000 1.000000 0.000000
0.020000 0.000000 0.112500
0.157500 0.000000 0.112500
0.295000 0.000000 0.112500
0.432500 0.000000 0.112500
0.570000 0.000000 0.112500
0.707500 0.000000 0.112500
0.845000 0.000000 0.112500
0.982500 0.000000 0.112500
1.000000 0.000000 0.112500
0.020000 0.128750 0.112500
0.157500 0.128750 0.112500
0.295000 0.128750 0.112500
0.432500 0.128750 0.112500
0.570000 0.128750 0.112500
0.707500 0.128750 0.112500
0.845000 0.128750 0.112500
0.982500 0.128750 0.112500
1.000000 0.128750 0.112500
0.020000 0.257500 0.112500
0.157500 0.257500 0.112500
0.295000 0.257500 0.112500
0.432500 0.257500 0.112500
0.570000 0.257500 0.112500
0.707500 0.257500 0.112500
0.845000 0.257500 0.112500
0.982500 0.257500 0.112500
1.000000 0.257500 0.112500
0.020000 0.386250 0.112500
0.157500 0.386250 0.112500
0.295000 0.386250 0.112500
0.432500 0.386250 0.112500
0.570000 0.386250 0.112500
0.707500 0.386250 0.112500
0.845000 0.386250 0.112500
0.982500 0.386250 0.112500
1.000000 0.386250 0.112500
0.020000 0.515000 0.112500
0.157500 0.515000 0.112500
0.295000 0.515000 0.112500
0.432500 0.515000 0.112500
0.570000 0.515000 0.112500
0.707500 0.515000 0.112500
0.845000 0.515000 0.112500
0.982500 0.515000 0.112500
1.000000 0.515000 0.112500
0.020000 0.643750 0.112500
0.157500 0.643750 0.112500
0.295000 0.643750 0.112500
0.432500 0.643750 0.112500
0.570000 0.643750 0.112500
0.707500 0.643750 0.112500
0.845000 0.643750 0.112500
0.982500 0.643750 0.112500
1.000000 0.643750 0.112500
0.020000 0.772500 0.112500
0.157500 0.772500 0.112500
0.295000 0.772500 0.112500
0.432500 0.772500 0.112500
0.570000 0.772500 0.112500
0.707500 0.772500 0.112500
0.845000 0.772500 0.112500
0.982500 0.772500 0.112500
1.000000 0.772500 0.112500
0.020000 0.901250 0.112500
0.157500 0.901250 0.112500
0.295000 0.901250 0.112500
0.432500 0.901250 0.112500
0.570000 0.901250 0.112500
0.707500 0.901250 0.112500
0.845000 0.901250 0.112500
0.982500 0.901250 0.112500
1.000000 0.901250 0.112500
0.020000 1.000000 0.112500
0.157500 1.000000 0.112500
0.295000 1.000000 0.112500
0.432500 1.000000 0.112500
0.570000 1.000000 0.112500
0.707500 1.000000 0.112500
0.845000 1.000000 0.112500
0.982500 1.000000 0.112500
1.000000 1.000000 0.112500
0.020000 0.000000 0.225000
0.157500 0.000000 0.225000
0.295000 0.000000 0.225000
0.432500 0.000000 0.225000
0.570000 0.000000 0.225000
0.707500 0.000000 0.225000
0.845000 0.000000 0.225000
0.982500 0.000000 0.225000
1.000000 0.000000 0.225000
0.020000 0.128750 0.225000
0.157500 0.128750 0.225000
0.295000 0.128750 0.225000
0.432500 0.128750 0.225000
0.570000 0.128750 0.225000
0.707500 0.128750 0.225000
0.845000 0.128750 0.225000
0.982500 0.128750 0.225000
1.000000 0.128750 0.225000
0.020000 0.257500 0.225000
0.157500 0.257500 0.225000
0.295000 0.257500 0.225000
0.432500 0.257500 0.225000
0.570000 0.257500 0.225000
0.707500 0.257500 0.225000
0.845000 0.257500 0.225000
0.982500 0.257500 0.225000
1.000000 0.257500 0.225000
0.020000 0.386250 0.225000
0.157500 0.386250 0.225000
0.295000 0.386250 0.225000
0.432500 0.386250 0.225000
0.570000 0.386250 0.225000
0.707500 0.386250 0.225000
0.845000 0.386250 0.225000
0.982500 0.386250 0.225000
1.000000 0.386250 0.225000
0.020000 0.515000 0.225000
0.157500 0.515000 0.225000
0.295000 0.515000 0.225000
0.432500 0.515000 0.225000
0.570000 0.515000 0.225000
0.707500 0.515000 0.225000
0.845000 0.515000 0.225000
0.982500 0.515000 0.225000
1.000000 0.515000 0.225000
0.020000 0.643750 0.225000
0.157500 0.643750 0.225000
0.295000 0.643750 0.225000
0.432500 0.643750 0.225000
0.570000 0.643750 0.225000
0.707500 0.643750 0.225000
0.845000 0.643750 0.225000
0.982500 0.643750 0.225000
1.000000 0.643750 0.225000
0.020000 0.772500 0.225000
0.157500 0.772500 0.225000
0.295000 0.772500 0.225000
0.432500 0.772500 0.225000
0.570000 0.772500 0.225000
0.707500 0.772500 0.225000
0.845000 0.772500 0.225000
0.982500 0.772500 0.225000
1.000000 0.772500 0.225000
0.020000 0.901250 0.225000
0.157500 0.901250 0.225000
0.295000 0.901250 0.225000
0.432500 0.901250 0.225000
0.570000 0.901250 0.225000
0.707500 0.901250 0.225000
0.845000 0.901250 0.225000
0.982500 0.901250 0.225000
1.000000 0.901250 0.225000
0.020000 1.000000 0.225000
0.157500 1.000000 0.225000
0.295000 1.000000 0.225000
0.432500 1.000000 0.225000
0.570000 1.000000 0.225000
0.707500 1.000000 0.225000
0.845000 1.000000 0.225000
0.982500 1.000000 0.225000
1.000000 1.000000 0.225000
0.020000 0.000000 0.337500
0.157500 0.000000 0.337500
0.295000 0.000000 0.337500
0.432500 0.000000 0.337500
0.570000 0.000000 0.337500
0.707500 0.000000 0.337500
0.845000 0.000000 0.337500
0.982500 0.000000 0.337500
1.000000 0.000000 0.337500
0.020000 0.128750 0.337500
0.157500 0.128750 0.337500
0.295000 0.128750 0.337500
0.432500 0.128750 0.337500
0.570000 0.128750 0.337500
0.707500 0.128750 0.337500
0.845000 0.128750 0.337500
0.982500 0.128750 0.337500
1.000000 0.128750 0.337500
0.020000 0.257500 0.337500
0.157500 0.257500 0.337500
0.295000 0.257500 0.337500
0.432500 0.257500 0.337500
0.570000 0.257500 0.337500
0.707500 0.257500 0.337500
0.845000 0.257500 0.337500
0.982500 0.257500 0.337500
1.000000 0.257500 0.337500
0.020000 0.386250 0.337500
0.157500 0.386250 0.337500
0.295000 0.386250 0.337500
0.432500 0.386250 0.337500
0.570000 0.386250 0.337500
0.707500 0.386250 0.337500
0.845000 0.386250 0.337500
0.982500 0.386250 0.337500
1.000000 0.386250 0.337500
0.020000 0.515000 0.337500
0.157500 0.515000 0.337500
0.295000 0.515000 0.337500
0.432500 0.515000 0.337500
0.570000 0.515000 0.337500
0.707500 0.515000 0.337500
0.845000 0.515000 0.337500
0.982500 0.515000 0.337500
1.000000 0.515000 0.337500
0.020000 0.643750 0.337500
0.157500 0.643750 0.337500
0.295000 0.643750 0.337500
0.432500 0.643750 0.337500
0.570000 0.643750 0.337500
0.707500 0.643750 0.337500
0.845000 0.643750 0.337500
0.982500 0.643750 0.337500
1.000000 0.643750 0.337500
0.020000 0.772500 0.337500
0.157500 0.772500 0.337500
0.295000 0.772500 0.337500
0.432500 0.772500 0.337500
0.570000 0.772500 0.337500
0.707500 0.772500 0.337500
0.845000 0.772500 0.337500
0.982500 0.772500 0.337500
1.000000 0.772500 0.337500
0.020000 0.901250 0.337500
0.157500 0.901250 0.337500
0.295000 0.901250 0.337500
0.432500 0.901250 0.337500
0.570000 0.901250 0.337500
0.707500 0.901250 0.337500
0.845000 0.901250 0.337500
0.982500 0.901250 0.337500
1.000000 0.901250 0.337500
0.020000 1.000000 0.337500
0.157500 1.000000 0.337500
0.295000 1.000000 0.337500
0.432500 1.000000 0.337500
0.570000 1.000000 0.337500
0.707500 1.000000 0.337500
0.845000 1.000000 0.337500
0.982500 1.000000 0.337500
1.000000 1.000000 0.337500
0.020000 0.000000 0.450000
0.157500 0.000000 0.450000
0.295000 0.000000 0.450000
0.432500 0.000000 0.450000
0.570000 0.000000 0.450000
0.707500 0.000000 0.450000
0.845000 0.000000 0.450000
0.982500 0.000000 0.450000
1.000000 0.000000 0.450000
0.020000 0.128750 0.450000
0.157500 0.128750 0.450000
0.295000 0.128750 0.450000
0.432500 0.128750 0.450000
0.570000 0.128750 0.450000
0.707500 0.128750 0.450000
0.845000 0.128750 0.450000
0.982500 0.128750 0.450000
1.000000 0.128750 0.450000
0.020000 0.257500 0.450000
0.157500 0.257500 0.450000
0.295000 0.257500 0.450000
0.432500 0.257500 0.450000
0.570000 0.257500 0.450000
0.707500 0.257500 0.450000
0.845000 0.257500 0.450000
0.982500 0.257500 0.450000
1.000000 0.257500 0.450000
0.020000 0.386250 0.450000
0.157500 0.386250 0.450000
0.295000 0.386250 0.450000
0.432500 0.386250 0.450000
0.570000 0.386250 0.450000
0.707500 0.386250 0.450000
0.845000 0.386250 0.450000
0.982500 0.386250 0.450000
1.000000 0.386250 0.450000
0.020000 0.515000 0.450000
0.157500 0.515000 0.450000
0.295000 0.515000 0.450000
0.432500 0.515000 0.450000
0.570000 0.515000 0.450000
0.707500 0.515000 0.450000
0.845000 0.515000 0.450000
0.982500 0.515000 0.450000
1.000000 0.515000 0.450000
0.020000 0.643750 0.450000
0.157500 0.643750 0.450000
0.295000 0.643750 0.450000
0.432500 0.643750 0.450000
0.570000 0.643750 0.450000
0.707500 0.643750 0.450000
0.845000 0.643750 0.450000
0.982500 0.643750 0.450000
1.000000 0.643750 0.450000
0.020000 0.772500 0.450000
0.157500 0.772500 0.450000
0.295000 0.772500 0.450000
0.432500 0.772500 0.450000
0.570000 0.772500 0.450000
0.707500 0.772500 0.450000
0.845000 0.772500 0.450000
0.982500 0.772500 0.450000
1.000000 0.772500 0.450000
0.020000 0.901250 0.450000
0.157500 0.901250 0.450000
0.295000 0.901250 0.450000
0.432500 0.901250 0.450000
0.570000 0.901250 0.450000
0.707500 0.901250 0.450000
0.845000 0.901250 0.450000
0.982500 0.901250 0.450000
1.000000 0.901250 0.450000
0.020000 1.000000 0.450000
0.157500 1.000000 0.450000
0.295000 1.000000 0.450000
0.432500 1.000000 0.450000
0.570000 1.000000 0.450000
0.707500 1.000000 0.450000
0.845000 1.000000 0.450000
0.982500 1.000000 0.450000
1.000000 1.000000 0.450000
0.020000 0.000000 0.562500
0.157500 0.000000 0.562500
0.295000 0.000000 0.562500
0.432500 0.000000 0.562500
0.570000 0.000000 0.562500
0.707500 0.000000 0.562500
0.845000 0.000000 0.562500
0.982500 0.000000 0.562500
1.000000 0.000000 0.562500
0.020000 0.128750 0.562500
0.157500 0.128750 0.562500
0.295000 0.128750 0.562500
0.432500 0.128750 0.562500
0.570000 0.128750 0.562500
0.707500 0.128750 0.562500
0.845000 0.128750 0.562500
0.982500 0.128750 0.562500
1.000000 0.128750 0.562500
0.020000 0.257500 0.562500
0.157500 0.257500 0.562500
0.295000 0.257500 0.562500
0.432500 0.257500 0.562500
0.570000 0.257500 0.562500
0.707500 0.257500 0.562500
0.845000 0.257500 0.562500
0.982500 0.257500 0.562500
1.000000 0.257500 0.562500
0.020000 0.386250 0.562500
0.157500 0.386250 0.562500
0.295000 0.386250 0.562500
0.432500 0.386250 0.562500
0.570000 0.386250 0.562500
0.707500 0.386250 0.562500
0.845000 0.386250 0.562500
0.982500 0.386250 0.562500
1.000000 0.386250 0.562500
0.020000 0.515000 0.562500
0.157500 0.515000 0.562500
0.295000 0.515000 0.562500
0.432500 0.515000 0.562500
0.570000 0.515000 0.562500
0.707500 0.515000 0.562500
0.845000 0.515000 0.562500
0.982500 0.515000 0.562500
1.000000 0.515000 0.562500
0.020000 0.643750 0.562500
0.157500 0.643750 0.562500
0.295000 0.643750 0.562500
0.432500 0.643750 0.562500
0.570000 0.643750 0.562500
0.707500 0.643750 0.562500
0.845000 0.643750 0.562500
0.982500 0.643750 0.562500
1.000000 0.643750 0.562500
0.020000 0.772500 0.562500
0.157500 0.772500 0.562500
0.295000 0.772500 0.562500
0.432500 0.772500 0.562500
0.570000 0.772500 0.562500
0.707500 0.772500 0.562500
0.845000 0.772500 0.562500
0.982500 0.772500 0.562500
1.000000 0.772500 0.562500
0.020000 0.901250 0.562500
0.157500 0.901250 0.562500
0.295000 0.901250 0.562500
0.432500 0.901250 0.562500
0.570000 0.901250 0.562500
0.707500 0.901250 0.562500
0.845000 0.901250 0.562500
0.982500 0.901250 0.562500
1.000000 0.901250 0.562500
0.020000 1.000000 0.562500
0.157500 1.000000 0.562500
0.295000 1.000000 0.562500
0.432500 1.000000 0.562500
0.570000 1.000000 0.562500
0.707500 1.000000 0.562500
0.845000 1.000000 0.562500
0.982500 1.000000 0.562500
1.000000 1.000000 0.562500
0.020000 0.000000 0.675000
0.157500 0.000000 0.675000
0.295000 0.000000 0.675000
0.432500 0.000000 0.675000
0.570000 0.000000 0.675000
0.707500 0.000000 0.675000
0.845000 0.000000 0.675000
0.982500 0.000000 0.675000
1.000000 0.000000 0.675000
0.020000 0.128750 0.675000
0.157500 0.128750 0.675000
0.295000 0.128750 0.675000
0.432500 0.128750 0.675000
0.570000 0.128750 0.675000
0.707500 0.128750 0.675000
0.845000 0.128750 0.675000
0.982500 0.128750 0.675000
1.000000 0.128750 0.675000
0.020000 0.257500 0.675000
0.157500 0.257500 0.675000
0.295000 0.257500 0.675000
0.432500 0.257500 0.675000
0.570000 0.257500 0.675000
0.707500 0.257500 0.675000
0.845000 0.257500 0.675000
0.982500 0.257500 0.675000
1.000000 0.257500 0.675000
0.020000 0.386250 0.675000
0.157500 0.386250 0.675000
0.295000 0.386250 0.675000
0.432500 0.386250 0.675000
0.570000 0.386250 0.675000
0.707500 0.386250 0.675000
0.845000 0.386250 0.675000
0.982500 0.386250 0.675000
1.000000 0.386250 0.675000
0.020000 0.515000 0.675000
0.157500 0.515000 0.675000
0.295000 0.515000 0.675000
0.432500 0.515000 0.675000
0.570000 0.515000 0.675000
0.707500 0.515000 0.675000
0.845000 0.515000 0.675000
0.982500 0.515000 0.675000
1.000000 0.515000 0.675000
0.020000 0.643750 0.675000
0.157500 0.643750 0.675000
0.295000 0.643750 0.675000
0.432500 0.643750 0.675000
0.570000 0.643750 0.675000
0.707500 0.643750 0.675000
0.845000 0.643750 0.675000
0.982500 0.643750 0.675000
1.000000 0.643750 0.675000
0.020000 0.772500 0.675000
0.157500 0.772500 0.675000
0.295000 0.772500 0.675000
0.432500 0.772500 0.675000
0.570000 0.772500 0.675000
0.707500 0.772500 0.675000
0.845000 0.772500 0.675000
0.982500 0.772500 0.675000
1.000000 0.772500 0.675000
0.020000 0.901250 0.675000
0.157500 0.901250 0.675000
0.295000 0.901250 0.675000
0.432500 0.901250 0.675000
0.570000 0.901250 0.675000
0.707500 0.901250 0.675000
0.845000 0.901250 0.675000
0.982500 0.901250 0.675000
1.000000 0.901250 0.675000
0.020000 1.000000 0.675000
0.157500 1.000000 0.675000
0.295000 1.000000 0.675000
0.432500 1.000000 0.675000
0.570000 1.000000 0.675000
0.707500 1.000000 0.675000
0.845000 1.000000 0.675000
0.982500 1.000000 0.675000
1.000000 1.000000 0.675000
0.020000 0.000000 0.787500
0.157500 0.000000 0.787500
0.295000 0.000000 0.787500
0.432500 0.000000 0.787500
0.570000 0.000000 0.787500
0.707500 0.000000 0.787500
0.845000 0.000000 0.787500
0.982500 0.000000 0.787500
1.000000 0.000000 0.787500
0.020000 0.128750 0.787500
0.157500 0.128750 0.787500
0.295000 0.128750 0.787500
0.432500 0.128750 0.787500
0.570000 0.128750 0.787500
0.707500 0.128750 0.787500
0.845000 0.128750 0.787500
0.982500 0.128750 0.787500
1.000000 0.128750 0.787500
0.020000 0.257500 0.787500
0.157500 0.257500 0.787500
0.295000 0.257500 0.787500
0.432500 0.257500 0.787500
0.570000 0.257500 0.787500
0.707500 0.257500 0.787500
0.845000 0.257500 0.787500
0.982500 0.257500 0.787500
1.000000 0.257500 0.787500
0.020000 0.386250 0.787500
0.157500 0.386250 0.787500
0.295000 0.386250 0.787500
0.432500 0.386250 0.787500
0.570000 0.386250 0.787500
0.707500 0.386250 0.787500
0.845000 0.386250 0.787500
0.982500 0.386250 0.787500
1.000000 0.386250 0.787500
0.020000 0.515000 0.787500
0.157500 0.515000 0.787500
0.295000 0.515000 0.787500
0.432500 0.515000 0.787500
0.570000 0.515000 0.787500
0.707500 0.515000 0.787500
0.845000 0.515000 0.787500
0.982500 0.515000 0.787500
1.000000 0.515000 0.787500
0.020000 0.643750 0.787500
0.157500 0.643750 0.787500
0.295000 0.643750 0.787500
0.432500 0.643750 0.787500
0.570000 0.643750 0.787500
0.707500 0.643750 0.787500
0.845000 0.643750 0.787500
0.982500 0.643750 0.787500
1.000000 0.643750 0.787500
0.020000 0.772500 0.787500
0.157500 0.772500 0.787500
0.295000 0.772500 0.787500
0.432500 0.772500 0.787500
0.570000 0.772500 0.787500
0.707500 0.772500 0.787500
0.845000 0.772500 0.787500
0.982500 0.772500 0.787500
1.000000 0.772500 0.787500
0.020000 0.901250 0.787500
0.157500 0.901250 0.787500
0.295000 0.901250 0.787500
0.432500 0.901250 0.787500
0.570000 0.901250 0.787500
0.707500 0.901250 0.787500
0.845000 0.901250 0.787500
0.982500 0.901250 0.787500
1.000000 0.901250 0.787500
0.020000 1.000000 0.787500
0.157500 1.000000 0.787500
0.295000 1.000000 0.787500
0.432500 1.000000 0.787500
0.570000 1.000000 0.787500
0.707500 1.000000 0.787500
0.845000 1.000000 0.787500
0.982500 1.000000 0.787500
1.000000 1.000000 0.787500
0.020000 0.000000 0.900000
0.157500 0.000000 0.900000
0.295000 0.000000 0.900000
0.432500 0.000000 0.900000
0.570000 0.000000 0.900000
0.707500 0.000000 0.900000
0.845000 0.000000 0.900000
0.982500 0.000000 0.900000
1.000000 0.000000 0.900000
0.020000 0.128750 0.900000
0.157500 0.128750 0.900000
0.295000 0.128750 0.900000
0.432500 0.128750 0.900000
0.570000 0.128750 0.900000
0.707500 0.128750 0.900000
0.845000 0.128750 0.900000
0.982500 0.128750 0.900000
1.000000 0.128750 0.900000
0.020000 0.257500 0.900000
0.157500 0.257500 0.900000
0.295000 0.257500 0.900000
0.432500 0.257500 0.900000
0.570000 0.257500 0.900000
0.707500 0.257500 0.900000
0.845000 0.257500 0.900000
0.982500 0.257500 0.900000
1.000000 0.257500 0.900000
0.020000 0.386250 0.900000
0.157500 0.386250 0.900000
0.295000 0.386250 0.900000
0.432500 0.386250 0.900000
0.570000 0.386250 0.900000
0.707500 0.386250 0.900000
0.845000 0.386250 0.900000
0.982500 0.386250 0.900000
1.000000 0.386250 0.900000
0.020000 0.515000 0.900000
0.157500 0.515000 0.900000
0.295000 0.515000 0.900000
0.432500 0.515000 0.900000
0.570000 0.515000 0.900000
0.707500 0.515000 0.900000
0.845000 0.515000 0.900000
0.982500 0.515000 0.900000
1.000000 0.515000 0.900000
0.020000 0.643750 0.900000
0.157500 0.643750 0.900000
0.295000 0.643750 0.900000
0.432500 0.643750 0.900000
0.570000 0.643750 0.900000
0.707500 0.643750 0.900000
0.845000 0.643750 0.900000
0.982500 0.643750 0.900000
1.000000 0.643750 0.900000
0.020000 0.772500 0.900000
0.157500 0.772500 0.900000
0.295000 0.772500 0.900000
0.432500 0.772500 0.900000
0.570000 0.772500 0.900000
0.707500 0.772500 0.900000
0.845000 0.772500 0.900000
0.982500 0.772500 0.900000
1.000000 0.772500 0.900000
0.020000 0.901250 0.900000
0.157500 0.901250 0.900000
0.295000 0.901250 0.900000
0.432500 0.901250 0.900000
0.570000 0.901250 0.900000
0.707500 0.901250 0.900000
0.845000 0.901250 0.900000
0.982500 0.901250 0.900000
1.000000 0.901250 0.900000
0.020000 1.000000 0.900000
0.157500 1.000000 0.900000
0.295000 1.000000 0.900000
0.432500 1.000000 0.900000
0.570000 1.000000 0.900000
0.707500 1.000000 0.900000
0.845000 1.000000 0.900000
0.982500 1.000000 0.900000
1.000000 1.000000 0.900000
