Apps/PeekLUT/Resources/SampleLUTs/Warm.cube
TITLE "Warm 17"
LUT_3D_SIZE 17
DOMAIN_MIN 0.0 0.0 0.0
DOMAIN_MAX 1.0 1.0 1.0
0.020000 0.000000 0.000000
0.088750 0.000000 0.000000
0.157500 0.000000 0.000000
0.226250 0.000000 0.000000
0.295000 0.000000 0.000000
0.363750 0.000000 0.000000
0.432500 0.000000 0.000000
0.501250 0.000000 0.000000
0.570000 0.000000 0.000000
0.638750 0.000000 0.000000
0.707500 0.000000 0.000000
0.776250 0.000000 0.000000
0.845000 0.000000 0.000000
0.913750 0.000000 0.000000
0.982500 0.000000 0.000000
1.000000 0.000000 0.000000
1.000000 0.000000 0.000000
0.020000 0.064375 0.000000
0.088750 0.064375 0.000000
0.157500 0.064375 0.000000
0.226250 0.064375 0.000000
0.295000 0.064375 0.000000
0.363750 0.064375 0.000000
0.432500 0.064375 0.000000
0.501250 0.064375 0.000000
0.570000 0.064375 0.000000
0.638750 0.064375 0.000000
0.707500 0.064375 0.000000
0.776250 0.064375 0.000000
0.845000 0.064375 0.000000
0.913750 0.064375 0.000000
0.982500 0.064375 0.000000
1.000000 0.064375 0.000000
1.000000 0.064375 0.000000
0.020000 0.128750 0.000000
0.088750 0.128750 0.000000
0.157500 0.128750 0.000000
0.226250 0.128750 0.000000
0.295000 0.128750 0.000000
0.363750 0.128750 0.000000
0.432500 0.128750 0.000000
0.501250 0.128750 0.000000
0.570000 0.128750 0.000000
0.638750 0.128750 0.000000
0.707500 0.128750 0.000000
0.776250 0.128750 0.000000
0.845000 0.128750 0.000000
0.913750 0.128750 0.000000
0.982500 0.128750 0.000000
1.000000 0.128750 0.000000
1.000000 0.128750 0.000000
0.020000 0.193125 0.000000
0.088750 0.193125 0.000000
0.157500 0.193125 0.000000
0.226250 0.193125 0.000000
0.295000 0.193125 0.000000
0.363750 0.193125 0.000000
0.432500 0.193125 0.000000
0.501250 0.193125 0.000000
0.570000 0.193125 0.000000
0.638750 0.193125 0.000000
0.707500 0.193125 0.000000
0.776250 0.193125 0.000000
0.845000 0.193125 0.000000
0.913750 0.193125 0.000000
0.982500 0.193125 0.000000
1.000000 0.193125 0.000000
1.000000 0.193125 0.000000
0.020000 0.257500 0.000000
0.088750 0.257500 0.000000
0.157500 0.257500 0.000000
0.226250 0.257500 0.000000
0.295000 0.257500 0.000000
0.363750 0.257500 0.000000
0.432500 0.257500 0.000000
0.501250 0.257500 0.000000
0.570000 0.257500 0.000000
0.638750 0.257500 0.000000
0.707500 0.257500 0.000000
0.776250 0.257500 0.000000
0.845000 0.257500 0.000000
0.913750 0.257500 0.000000
0.982500 0.257500 0.000000
1.000000 0.257500 0.000000
1.000000 0.257500 0.000000
0.020000 0.321875 0.000000
0.088750 0.321875 0.000000
0.157500 0.321875 0.000000
0.226250 0.321875 0.000000
0.295000 0.321875 0.000000
0.363750 0.321875 0.000000
0.432500 0.321875 0.000000
0.501250 0.321875 0.000000
0.570000 0.321875 0.000000
0.638750 0.321875 0.000000
0.707500 0.321875 0.000000
0.776250 0.321875 0.000000
0.845000 0.321875 0.000000
0.913750 0.321875 0.000000
0.982500 0.321875 0.000000
1.000000 0.321875 0.000000
1.000000 0.321875 0.000000
0.020000 0.386250 0.000000
0.088750 0.386250 0.000000
0.157500 0.386250 0.000000
0.226250 0.386250 0.000000
0.295000 0.386250 0.000000
0.363750 0.386250 0.000000
0.432500 0.386250 0.000000
0.501250 0.386250 0.000000
0.570000 0.386250 0.000000
0.638750 0.386250 0.000000
0.707500 0.386250 0.000000
0.776250 0.386250 0.000000
0.845000 0.386250 0.000000
0.913750 0.386250 0.000000
0.982500 0.386250 0.000000
1.000000 0.386250 0.000000
1.000000 0.386250 0.000000
0.020000 0.450625 0.000000
0.088750 0.450625 0.000000
0.157500 0.450625 0.000000
0.226250 0.450625 0.000000
0.295000 0.450625 0.000000
0.363750 0.450625 0.000000
0.432500 0.450625 0.000000
0.501250 0.450625 0.000000
0.570000 0.450625 0.000000
0.638750 0.450625 0.000000
0.707500 0.450625 0.000000
0.776250 0.450625 0.000000
0.845000 0.450625 0.000000
0.913750 0.450625 0.000000
0.982500 0.450625 0.000000
1.000000 0.450625 0.000000
1.000000 0.450625 0.000000
0.020000 0.515000 0.000000
0.088750 0.515000 0.000000
0.157500 0.515000 0.000000
0.226250 0.515000 0.000000
0.295000 0.515000 0.000000
0.363750 0.515000 0.000000
0.432500 0.515000 0.000000
0.501250 0.515000 0.000000
0.570000 0.515000 0.000000
0.638750 0.515000 0.000000
0.707500 0.515000 0.000000
0.776250 0.515000 0.000000
0.845000 0.515000 0.000000
0.913750 0.515000 0.000000
0.982500 0.515000 0.000000
1.000000 0.515000 0.000000
1.000000 0.515000 0.000000
0.020000 0.579375 0.000000
0.088750 0.579375 0.000000
0.157500 0.579375 0.000000
0.226250 0.579375 0.000000
0.295000 0.579375 0.000000
0.363750 0.579375 0.000000
0.432500 0.579375 0.000000
0.501250 0.579375 0.000000
0.570000 0.579375 0.000000
0.638750 0.579375 0.000000
0.707500 0.579375 0.000000
0.776250 0.579375 0.000000
0.845000 0.579375 0.000000
0.913750 0.579375 0.000000
0.982500 0.579375 0.000000
1.000000 0.579375 0.000000
1.000000 0.579375 0.000000
0.020000 0.643750 0.000000
0.088750 0.643750 0.000000
0.157500 0.643750 0.000000
0.226250 0.643750 0.000000
0.295000 0.643750 0.000000
0.363750 0.643750 0.000000
0.432500 0.643750 0.000000
0.501250 0.643750 0.000000
0.570000 0.643750 0.000000
0.638750 0.643750 0.000000
0.707500 0.643750 0.000000
0.776250 0.643750 0.000000
0.845000 0.643750 0.000000
0.913750 0.643750 0.000000
0.982500 0.643750 0.000000
1.000000 0.643750 0.000000
1.000000 0.643750 0.000000
0.020000 0.708125 0.000000
0.088750 0.708125 0.000000
0.157500 0.708125 0.000000
0.226250 0.708125 0.000000
0.295000 0.708125 0.000000
0.363750 0.708125 0.000000
0.432500 0.708125 0.000000
0.501250 0.708125 0.000000
0.570000 0.708125 0.000000
0.638750 0.708125 0.000000
0.707500 0.708125 0.000000
0.776250 0.708125 0.000000
0.845000 0.708125 0.000000
0.913750 0.708125 0.000000
0.982500 0.708125 0.000000
1.000000 0.708125 0.000000
1.000000 0.708125 0.000000
0.020000 0.772500 0.000000
0.088750 0.772500 0.000000
0.157500 0.772500 0.000000
0.226250 0.772500 0.000000
0.295000 0.772500 0.000000
0.363750 0.772500 0.000000
0.432500 0.772500 0.000000
0.501250 0.772500 0.000000
0.570000 0.772500 0.000000
0.638750 0.772500 0.000000
0.707500 0.772500 0.000000
0.776250 0.772500 0.000000
0.845000 0.772500 0.000000
0.913750 0.772500 0.000000
0.982500 0.772500 0.000000
1.000000 0.772500 0.000000
1.000000 0.772500 0.000000
0.020000 0.836875 0.000000
0.088750 0.836875 0.000000
0.157500 0.836875 0.000000
0.226250 0.836875 0.000000
0.295000 0.836875 0.000000
0.363750 0.836875 0.000000
0.432500 0.836875 0.000000
0.501250 0.836875 0.000000
0.570000 0.836875 0.000000
0.638750 0.836875 0.000000
0.707500 0.836875 0.000000
0.776250 0.836875 0.000000
0.845000 0.836875 0.000000
0.913750 0.836875 0.000000
0.982500 0.836875 0.000000
1.000000 0.836875 0.000000
1.000000 0.836875 0.000000
0.020000 0.901250 0.000000
0.088750 0.901250 0.000000
0.157500 0.901250 0.000000
0.226250 0.901250 0.000000
0.295000 0.901250 0.000000
0.363750 0.901250 0.000000
0.432500 0.901250 0.000000
0.501250 0.901250 0.000000
0.570000 0.901250 0.000000
0.638750 0.901250 0.000000
0.707500 0.901250 0.000000
0.776250 0.901250 0.000000
0.845000 0.901250 0.000000
0.913750 0.901250 0.000000
0.982500 0.901250 0.000000
1.000000 0.901250 0.000000
1.000000 0.901250 0.000000
0.020000 0.965625 0.000000
0.088750 0.965625 0.000000
0.157500 0.965625 0.000000
0.226250 0.965625 0.000000
0.295000 0.965625 0.000000
0.363750 0.965625 0.000000
0.432500 0.965625 0.000000
0.501250 0.965625 0.000000
0.570000 0.965625 0.000000
0.638750 0.965625 0.000000
0.707500 0.965625 0.000000
0.776250 0.965625 0.000000
0.845000 0.965625 0.000000
0.913750 0.965625 0.000000
0.982500 0.965625 0.000000
1.000000 0.965625 0.000000
1.000000 0.965625 0.000000
0.020000 1.000000 0.000000
0.088750 1.000000 0.000000
0.157500 1.000000 0.000000
0.226250 1.000000 0.000000
0.295000 1.000000 0.000000
0.363750 1.000000 0.000000
0.432500 1.000000 0.000000
0.501250 1.000000 0.000000
0.570000 1.000000 0.000000
0.638750 1.000000 0.000000
0.707500 1.000000 0.000000
0.776250 1.000000 0.000000
0.845000 1.000000 0.000000
0.913750 1.000000 0.000000
0.982500 1.000000 0.000000
1.000000 1.000000 0.000000
1.000000 1.000000 0.000000
0.020000 0.000000 0.056250
0.088750 0.000000 0.056250
0.157500 0.000000 0.056250
0.226250 0.000000 0.056250
0.295000 0.000000 0.056250
0.363750 0.000000 0.056250
0.432500 0.000000 0.056250
0.501250 0.000000 0.056250
0.570000 0.000000 0.056250
0.638750 0.000000 0.056250
0.707500 0.000000 0.056250
0.776250 0.000000 0.056250
0.845000 0.000000 0.056250
0.913750 0.000000 0.056250
0.982500 0.000000 0.056250
1.000000 0.000000 0.056250
1.000000 0.000000 0.056250
0.020000 0.064375 0.056250
0.088750 0.064375 0.056250
0.157500 0.064375 0.056250
0.226250 0.064375 0.056250
0.295000 0.064375 0.056250
0.363750 0.064375 0.056250
0.432500 0.064375 0.056250
0.501250 0.064375 0.056250
0.570000 0.064375 0.056250
0.638750 0.064375 0.056250
0.707500 0.064375 0.056250
0.776250 0.064375 0.056250
0.845000 0.064375 0.056250
0.913750 0.064375 0.056250
0.982500 0.064375 0.056250
1.000000 0.064375 0.056250
1.000000 0.064375 0.056250
0.020000 0.128750 0.056250
0.088750 0.128750 0.056250
0.157500 0.128750 0.056250
0.226250 0.128750 0.056250
0.295000 0.128750 0.056250
0.363750 0.128750 0.056250
0.432500 0.128750 0.056250
0.501250 0.128750 0.056250
0.570000 0.128750 0.056250
0.638750 0.128750 0.056250
0.707500 0.128750 0.056250
0.776250 0.128750 0.056250
0.845000 0.128750 0.056250
0.913750 0.128750 0.056250
0.982500 0.128750 0.056250
1.000000 0.128750 0.056250
1.000000 0.128750 0.056250
0.020000 0.193125 0.056250
0.088750 0.193125 0.056250
0.157500 0.193125 0.056250
0.226250 0.193125 0.056250
0.295000 0.193125 0.056250
0.363750 0.193125 0.056250
0.432500 0.193125 0.056250
0.501250 0.193125 0.056250
0.570000 0.193125 0.056250
0.638750 0.193125 0.056250
0.707500 0.193125 0.056250
0.776250 0.193125 0.056250
0.845000 0.193125 0.056250
0.913750 0.193125 0.056250
0.982500 0.193125 0.056250
1.000000 0.193125 0.056250
1.000000 0.193125 0.056250
0.020000 0.257500 0.056250
0.088750 0.257500 0.056250
0.157500 0.257500 0.056250
0.226250 0.257500 0.056250
0.295000 0.257500 0.056250
0.363750 0.257500 0.056250
0.432500 0.257500 0.056250
0.501250 0.257500 0.056250
0.570000 0.257500 0.056250
0.638750 0.257500 0.056250
0.707500 0.257500 0.056250
0.776250 0.257500 0.056250
0.845000 0.257500 0.056250
0.913750 0.257500 0.056250
0.982500 0.257500 0.056250
1.000000 0.257500 0.056250
1.000000 0.257500 0.056250
0.020000 0.321875 0.056250
0.088750 0.321875 0.056250
0.157500 0.321875 0.056250
0.226250 0.321875 0.056250
0.295000 0.321875 0.056250
0.363750 0.321875 0.056250
0.432500 0.321875 0.056250
0.501250 0.321875 0.056250
0.570000 0.321875 0.056250
0.638750 0.321875 0.056250
0.707500 0.321875 0.056250
0.776250 0.321875 0.056250
0.845000 0.321875 0.056250
0.913750 0.321875 0.056250
0.982500 0.321875 0.056250
1.000000 0.321875 0.056250
1.000000 0.321875 0.056250
0.020000 0.386250 0.056250
0.088750 0.386250 0.056250
0.157500 0.386250 0.056250
0.226250 0.386250 0.056250
0.295000 0.386250 0.056250
0.363750 0.386250 0.056250
0.432500 0.386250 0.056250
0.501250 0.386250 0.056250
0.570000 0.386250 0.056250
0.638750 0.386250 0.056250
0.707500 0.386250 0.056250
0.776250 0.386250 0.056250
0.845000 0.386250 0.056250
0.913750 0.386250 0.056250
0.982500 0.386250 0.056250
1.000000 0.386250 0.056250
1.000000 0.386250 0.056250
0.020000 0.450625 0.056250
0.088750 0.450625 0.056250
0.157500 0.450625 0.056250
0.226250 0.450625 0.056250
0.295000 0.450625 0.056250
0.363750 0.450625 0.056250
0.432500 0.450625 0.056250
0.501250 0.450625 0.056250
0.570000 0.450625 0.056250
0.638750 0.450625 0.056250
0.707500 0.450625 0.056250
0.776250 0.450625 0.056250
0.845000 0.450625 0.056250
0.913750 0.450625 0.056250
0.982500 0.450625 0.056250
1.000000 0.450625 0.056250
1.000000 0.450625 0.056250
0.020000 0.515000 0.056250
0.088750 0.515000 0.056250
0.157500 0.515000 0.056250
0.226250 0.515000 0.056250
0.295000 0.515000 0.056250
0.363750 0.515000 0.056250
0.432500 0.515000 0.056250
0.501250 0.515000 0.056250
0.570000 0.515000 0.056250
0.638750 0.515000 0.056250
0.707500 0.515000 0.056250
0.776250 0.515000 0.056250
0.845000 0.515000 0.056250
0.913750 0.515000 0.056250
0.982500 0.515000 0.056250
1.000000 0.515000 0.056250
1.000000 0.515000 0.056250
0.020000 0.579375 0.056250
0.088750 0.579375 0.056250
0.157500 0.579375 0.056250
0.226250 0.579375 0.056250
0.295000 0.579375 0.056250
0.363750 0.579375 0.056250
0.432500 0.579375 0.056250
0.501250 0.579375 0.056250
0.570000 0.579375 0.056250
0.638750 0.579375 0.056250
0.707500 0.579375 0.056250
0.776250 0.579375 0.056250
0.845000 0.579375 0.056250
0.913750 0.579375 0.056250
0.982500 0.579375 0.056250
1.000000 0.579375 0.056250
1.000000 0.579375 0.056250
0.020000 0.643750 0.056250
0.088750 0.643750 0.056250
0.157500 0.643750 0.056250
0.226250 0.643750 0.056250
0.295000 0.643750 0.056250
0.363750 0.643750 0.056250
0.432500 0.643750 0.056250
0.501250 0.643750 0.056250
0.570000 0.643750 0.056250
0.638750 0.643750 0.056250
0.707500 0.643750 0.056250
0.776250 0.643750 0.056250
0.845000 0.643750 0.056250
0.913750 0.643750 0.056250
0.982500 0.643750 0.056250
1.000000 0.643750 0.056250
1.000000 0.643750 0.056250
0.020000 0.708125 0.056250
0.088750 0.708125 0.056250
0.157500 0.708125 0.056250
0.226250 0.708125 0.056250
0.295000 0.708125 0.056250
0.363750 0.708125 0.056250
0.432500 0.708125 0.056250
0.501250 0.708125 0.056250
0.570000 0.708125 0.056250
0.638750 0.708125 0.056250
0.707500 0.708125 0.056250
0.776250 0.708125 0.056250
0.845000 0.708125 0.056250
0.913750 0.708125 0.056250
0.982500 0.708125 0.056250
1.000000 0.708125 0.056250
1.000000 0.708125 0.056250
0.020000 0.772500 0.056250
0.088750 0.772500 0.056250
0.157500 0.772500 0.056250
0.226250 0.772500 0.056250
0.295000 0.772500 0.056250
0.363750 0.772500 0.056250
0.432500 0.772500 0.056250
0.501250 0.772500 0.056250
0.570000 0.772500 0.056250
0.638750 0.772500 0.056250
0.707500 0.772500 0.056250
0.776250 0.772500 0.056250
0.845000 0.772500 0.056250
0.913750 0.772500 0.056250
0.982500 0.772500 0.056250
1.000000 0.772500 0.056250
1.000000 0.772500 0.056250
0.020000 0.836875 0.056250
0.088750 0.836875 0.056250
0.157500 0.836875 0.056250
0.226250 0.836875 0.056250
0.295000 0.836875 0.056250
0.363750 0.836875 0.056250
0.432500 0.836875 0.056250
0.501250 0.836875 0.056250
0.570000 0.836875 0.056250
0.638750 0.836875 0.056250
0.707500 0.836875 0.056250
0.776250 0.836875 0.056250
0.845000 0.836875 0.056250
0.913750 0.836875 0.056250
0.982500 0.836875 0.056250
1.000000 0.836875 0.056250
1.000000 0.836875 0.056250
0.020000 0.901250 0.056250
0.088750 0.901250 0.056250
0.157500 0.901250 0.056250
0.226250 0.901250 0.056250
0.295000 0.901250 0.056250
0.363750 0.901250 0.056250
0.432500 0.901250 0.056250
0.501250 0.901250 0.056250
0.570000 0.901250 0.056250
0.638750 0.901250 0.056250
0.707500 0.901250 0.056250
0.776250 0.901250 0.056250
0.845000 0.901250 0.056250
0.913750 0.901250 0.056250
0.982500 0.901250 0.056250
1.000000 0.901250 0.056250
1.000000 0.901250 0.056250
0.020000 0.965625 0.056250
0.088750 0.965625 0.056250
0.157500 0.965625 0.056250
0.226250 0.965625 0.056250
0.295000 0.965625 0.056250
0.363750 0.965625 0.056250
0.432500 0.965625 0.056250
0.501250 0.965625 0.056250
0.570000 0.965625 0.056250
0.638750 0.965625 0.056250
0.707500 0.965625 0.056250
0.776250 0.965625 0.056250
0.845000 0.965625 0.056250
0.913750 0.965625 0.056250
0.982500 0.965625 0.056250
1.000000 0.965625 0.056250
1.000000 0.965625 0.056250
0.020000 1.000000 0.056250
0.088750 1.000000 0.056250
0.157500 1.000000 0.056250
0.226250 1.000000 0.056250
0.295000 1.000000 0.056250
0.363750 1.000000 0.056250
0.432500 1.000000 0.056250
0.501250 1.000000 0.056250
0.570000 1.000000 0.056250
0.638750 1.000000 0.056250
0.707500 1.000000 0.056250
0.776250 1.000000 0.056250
0.845000 1.000000 0.056250
0.913750 1.000000 0.056250
0.982500 1.000000 0.056250
1.000000 1.000000 0.056250
1.000000 1.000000 0.056250
0.020000 0.000000 0.112500
0.088750 0.000000 0.112500
0.157500 0.000000 0.112500
0.226250 0.000000 0.112500
0.295000 0.000000 0.112500
0.363750 0.000000 0.112500
0.432500 0.000000 0.112500
0.501250 0.000000 0.112500
0.570000 0.000000 0.112500
0.638750 0.000000 0.112500
0.707500 0.000000 0.112500
0.776250 0.000000 0.112500
0.845000 0.000000 0.112500
0.913750 0.000000 0.112500
0.982500 0.000000 0.112500
1.000000 0.000000 0.112500
1.000000 0.000000 0.112500
0.020000 0.064375 0.112500
0.088750 0.064375 0.112500
0.157500 0.064375 0.112500
0.226250 0.064375 0.112500
0.295000 0.064375 0.112500
0.363750 0.064375 0.112500
0.432500 0.064375 0.112500
0.501250 0.064375 0.112500
0.570000 0.064375 0.112500
0.638750 0.064375 0.112500
0.707500 0.064375 0.112500
0.776250 0.064375 0.112500
0.845000 0.064375 0.112500
0.913750 0.064375 0.112500
0.982500 0.064375 0.112500
1.000000 0.064375 0.112500
1.000000 0.064375 0.112500
0.020000 0.128750 0.112500
0.088750 0.128750 0.112500
0.157500 0.128750 0.112500
0.226250 0.128750 0.112500
0.295000 0.128750 0.112500
0.363750 0.128750 0.112500
0.432500 0.128750 0.112500
0.501250 0.128750 0.112500
0.570000 0.128750 0.112500
0.638750 0.128750 0.112500
0.707500 0.128750 0.112500
0.776250 0.128750 0.112500
0.845000 0.128750 0.112500
0.913750 0.128750 0.112500
0.982500 0.128750 0.112500
1.000000 0.128750 0.112500
1.000000 0.128750 0.112500
0.020000 0.193125 0.112500
0.088750 0.193125 0.112500
0.157500 0.193125 0.112500
0.226250 0.193125 0.112500
0.295000 0.193125 0.112500
0.363750 0.193125 0.112500
0.432500 0.193125 0.112500
0.501250 0.193125 0.112500
0.570000 0.193125 0.112500
0.638750 0.193125 0.112500
0.707500 0.193125 0.112500
0.776250 0.193125 0.112500
0.845000 0.193125 0.112500
0.913750 0.193125 0.112500
0.982500 0.193125 0.112500
1.000000 0.193125 0.112500
1.000000 0.193125 0.112500
0.020000 0.257500 0.112500
0.088750 0.257500 0.112500
0.157500 0.257500 0.112500
0.226250 0.257500 0.112500
0.295000 0.257500 0.112500
0.363750 0.257500 0.112500
0.432500 0.257500 0.112500
0.501250 0.257500 0.112500
0.570000 0.257500 0.112500
0.638750 0.257500 0.112500
0.707500 0.257500 0.112500
0.776250 0.257500 0.112500
0.845000 0.257500 0.112500
0.913750 0.257500 0.112500
0.982500 0.257500 0.112500
1.000000 0.257500 0.112500
1.000000 0.257500 0.112500
0.020000 0.321875 0.112500
0.088750 0.321875 0.112500
0.157500 0.321875 0.112500
0.226250 0.321875 0.112500
0.295000 0.321875 0.112500
0.363750 0.321875 0.112500
0.432500 0.321875 0.112500
0.501250 0.321875 0.112500
0.570000 0.321875 0.112500
0.638750 0.321875 0.112500
0.707500 0.321875 0.112500
0.776250 0.321875 0.112500
0.845000 0.321875 0.112500
0.913750 0.321875 0.112500
0.982500 0.321875 0.112500
1.000000 0.321875 0.112500
1.000000 0.321875 0.112500
0.020000 0.386250 0.112500
0.088750 0.386250 0.112500
0.157500 0.386250 0.112500
0.226250 0.386250 0.112500
0.295000 0.386250 0.112500
0.363750 0.386250 0.112500
0.432500 0.386250 0.112500
0.501250 0.386250 0.112500
0.570000 0.386250 0.112500
0.638750 0.386250 0.112500
0.707500 0.386250 0.112500
0.776250 0.386250 0.112500
0.845000 0.386250 0.112500
0.913750 0.386250 0.112500
0.982500 0.386250 0.112500
1.000000 0.386250 0.112500
1.000000 0.386250 0.112500
0.020000 0.450625 0.112500
0.088750 0.450625 0.112500
0.157500 0.450625 0.112500
0.226250 0.450625 0.112500
0.295000 0.450625 0.112500
0.363750 0.450625 0.112500
0.432500 0.450625 0.112500
0.501250 0.450625 0.112500
0.570000 0.450625 0.112500
0.638750 0.450625 0.112500
0.707500 0.450625 0.112500
0.776250 0.450625 0.112500
0.845000 0.450625 0.112500
0.913750 0.450625 0.112500
0.982500 0.450625 0.112500
1.000000 0.450625 0.112500
1.000000 0.450625 0.112500
0.020000 0.515000 0.112500
0.088750 0.515000 0.112500
0.157500 0.515000 0.112500
0.226250 0.515000 0.112500
0.295000 0.515000 0.112500
0.363750 0.515000 0.112500
0.432500 0.515000 0.112500
0.501250 0.515000 0.112500
0.570000 0.515000 0.112500
0.638750 0.515000 0.112500
0.707500 0.515000 0.112500
0.776250 0.515000 0.112500
0.845000 0.515000 0.112500
0.913750 0.515000 0.112500
0.982500 0.515000 0.112500
1.000000 0.515000 0.112500
1.000000 0.515000 0.112500
0.020000 0.579375 0.112500
0.088750 0.579375 0.112500
0.157500 0.579375 0.112500
0.226250 0.579375 0.112500
0.295000 0.579375 0.112500
0.363750 0.579375 0.112500
0.432500 0.579375 0.112500
0.501250 0.579375 0.112500
0.570000 0.579375 0.112500
0.638750 0.579375 0.112500
0.707500 0.579375 0.112500
0.776250 0.579375 0.112500
0.845000 0.579375 0.112500
0.913750 0.579375 0.112500
0.982500 0.579375 0.112500
1.000000 0.579375 0.112500
1.000000 0.579375 0.112500
0.020000 0.643750 0.112500
0.088750 0.643750 0.112500
0.157500 0.643750 0.112500
0.226250 0.643750 0.112500
0.295000 0.643750 0.112500
0.363750 0.643750 0.112500
0.432500 0.643750 0.112500
0.501250 0.643750 0.112500
0.570000 0.643750 0.112500
0.638750 0.643750 0.112500
0.707500 0.643750 0.112500
0.776250 0.643750 0.112500
0.845000 0.643750 0.112500
0.913750 0.643750 0.112500
0.982500 0.643750 0.112500
1.000000 0.643750 0.112500
1.000000 0.643750 0.112500
0.020000 0.708125 0.112500
0.088750 0.708125 0.112500
0.157500 0.708125 0.112500
0.226250 0.708125 0.112500
0.295000 0.708125 0.112500
0.363750 0.708125 0.112500
0.432500 0.708125 0.112500
0.501250 0.708125 0.112500
0.570000 0.708125 0.112500
0.638750 0.708125 0.112500
0.707500 0.708125 0.112500
0.776250 0.708125 0.112500
0.845000 0.708125 0.112500
0.913750 0.708125 0.112500
0.982500 0.708125 0.112500
1.000000 0.708125 0.112500
1.000000 0.708125 0.112500
0.020000 0.772500 0.112500
0.088750 0.772500 0.112500
0.157500 0.772500 0.112500
0.226250 0.772500 0.112500
0.295000 0.772500 0.112500
0.363750 0.772500 0.112500
0.432500 0.772500 0.112500
0.501250 0.772500 0.112500
0.570000 0.772500 0.112500
0.638750 0.772500 0.112500
0.707500 0.772500 0.112500
0.776250 0.772500 0.112500
0.845000 0.772500 0.112500
0.913750 0.772500 0.112500
0.982500 0.772500 0.112500
1.000000 0.772500 0.112500
1.000000 0.772500 0.112500
0.020000 0.836875 0.112500
0.088750 0.836875 0.112500
0.157500 0.836875 0.112500
0.226250 0.836875 0.112500
0.295000 0.836875 0.112500
0.363750 0.836875 0.112500
0.432500 0.836875 0.112500
0.501250 0.836875 0.112500
0.570000 0.836875 0.112500
0.638750 0.836875 0.112500
0.707500 0.836875 0.112500
0.776250 0.836875 0.112500
0.845000 0.836875 0.112500
0.913750 0.836875 0.112500
0.982500 0.836875 0.112500
1.000000 0.836875 0.112500
1.000000 0.836875 0.112500
0.020000 0.901250 0.112500
0.088750 0.901250 0.112500
0.157500 0.901250 0.112500
0.226250 0.901250 0.112500
0.295000 0.901250 0.112500
0.363750 0.901250 0.112500
0.432500 0.901250 0.112500
0.501250 0.901250 0.112500
0.570000 0.901250 0.112500
0.638750 0.901250 0.112500
0.707500 0.901250 0.112500
0.776250 0.901250 0.112500
0.845000 0.901250 0.112500
0.913750 0.901250 0.112500
0.982500 0.901250 0.112500
1.000000 0.901250 0.112500
1.000000 0.901250 0.112500
0.020000 0.965625 0.112500
0.088750 0.965625 0.112500
0.157500 0.965625 0.112500
0.226250 0.965625 0.112500
0.295000 0.965625 0.112500
0.363750 0.965625 0.112500
0.432500 0.965625 0.112500
0.501250 0.965625 0.112500
0.570000 0.965625 0.112500
0.638750 0.965625 0.112500
0.707500 0.965625 0.112500
0.776250 0.965625 0.112500
0.845000 0.965625 0.112500
0.913750 0.965625 0.112500
0.982500 0.965625 0.112500
1.000000 0.965625 0.112500
1.000000 0.965625 0.112500
0.020000 1.000000 0.112500
0.088750 1.000000 0.112500
0.157500 1.000000 0.112500
0.226250 1.000000 0.112500
0.295000 1.000000 0.112500
0.363750 1.000000 0.112500
0.432500 1.000000 0.112500
0.501250 1.000000 0.112500
0.570000 1.000000 0.112500
0.638750 1.000000 0.112500
0.707500 1.000000 0.112500
0.776250 1.000000 0.112500
0.845000 1.000000 0.112500
0.913750 1.000000 0.112500
0.982500 1.000000 0.112500
1.000000 1.000000 0.112500
1.000000 1.000000 0.112500
0.020000 0.000000 0.168750
0.088750 0.000000 0.168750
0.157500 0.000000 0.168750
0.226250 0.000000 0.168750
0.295000 0.000000 0.168750
0.363750 0.000000 0.168750
0.432500 0.000000 0.168750
0.501250 0.000000 0.168750
0.570000 0.000000 0.168750
0.638750 0.000000 0.168750
0.707500 0.000000 0.168750
0.776250 0.000000 0.168750
0.845000 0.000000 0.168750
0.913750 0.000000 0.168750
0.982500 0.000000 0.168750
1.000000 0.000000 0.168750
1.000000 0.000000 0.168750
0.020000 0.064375 0.168750
0.088750 0.064375 0.168750
