Apps/PeekLUT/Resources/SampleLUTs/Warm.cube
TITLE "Warm 17"
LUT_3D_SIZE 5
DOMAIN_MIN 0.0 0.0 0.0
DOMAIN_MAX 1.0 1.0 1.0
0.020000 0.000000 0.000000
0.295000 0.000000 0.000000
0.570000 0.000000 0.000000
0.845000 0.000000 0.000000
1.000000 0.000000 0.000000
0.020000 0.257500 0.000000
0.295000 0.257500 0.000000
0.570000 0.257500 0.000000
0.845000 0.257500 0.000000
1.000000 0.257500 0.000000
0.020000 0.515000 0.000000
0.295000 0.515000 0.000000
0.570000 0.515000 0.000000
0.845000 0.515000 0.000000
1.000000 0.515000 0.000000
0.020000 0.772500 0.000000
0.295000 0.772500 0.000000
0.570000 0.772500 0.000000
0.845000 0.772500 0.000000
1.000000 0.772500 0.000000
0.020000 1.000000 0.000000
0.295000 1.000000 0.000000
0.570000 1.000000 0.000000
0.845000 1.000000 0.000000
1.000000 1.000000 0.000000
0.020000 0.000000 0.225000
0.295000 0.000000 0.225000
0.570000 0.000000 0.225000
0.845000 0.000000 0.225000
1.000000 0.000000 0.225000
0.020000 0.257500 0.225000
0.295000 0.257500 0.225000
0.570000 0.257500 0.225000
0.845000 0.257500 0.225000
1.000000 0.257500 0.225000
0.020000 0.515000 0.225000
0.295000 0.515000 0.225000
0.570000 0.515000 0.225000
0.845000 0.515000 0.225000
1.000000 0.515000 0.225000
0.020000 0.772500 0.225000
0.295000 0.772500 0.225000
0.570000 0.772500 0.225000
0.845000 0.772500 0.225000
1.000000 0.772500 0.225000
0.020000 1.000000 0.225000
0.295000 1.000000 0.225000
0.570000 1.000000 0.225000
0.845000 1.000000 0.225000
1.000000 1.000000 0.225000
0.020000 0.000000 0.450000
0.295000 0.000000 0.450000
0.570000 0.000000 0.450000
0.845000 0.000000 0.450000
1.000000 0.000000 0.450000
0.020000 0.257500 0.450000
0.295000 0.257500 0.450000
0.570000 0.257500 0.450000
0.845000 0.257500 0.450000
1.000000 0.257500 0.450000
0.020000 0.515000 0.450000
0.295000 0.515000 0.450000
0.570000 0.515000 0.450000
0.845000 0.515000 0.450000
1.000000 0.515000 0.450000
0.020000 0.772500 0.450000
0.295000 0.772500 0.450000
0.570000 0.772500 0.450000
0.845000 0.772500 0.450000
1.000000 0.772500 0.450000
0.020000 1.000000 0.450000
0.295000 1.000000 0.450000
0.570000 1.000000 0.450000
0.845000 1.000000 0.450000
1.000000 1.000000 0.450000
0.020000 0.000000 0.675000
0.295000 0.000000 0.675000
0.570000 0.000000 0.675000
0.845000 0.000000 0.675000
1.000000 0.000000 0.675000
0.020000 0.257500 0.675000
0.295000 0.257500 0.675000
0.570000 0.257500 0.675000
0.845000 0.257500 0.675000
1.000000 0.257500 0.675000
0.020000 0.515000 0.675000
0.295000 0.515000 0.675000
0.570000 0.515000 0.675000
0.845000 0.515000 0.675000
1.000000 0.515000 0.675000
0.020000 0.772500 0.675000
0.295000 0.772500 0.675000
0.570000 0.772500 0.675000
0.845000 0.772500 0.675000
1.000000 0.772500 0.675000
0.020000 1.000000 0.675000
0.295000 1.000000 0.675000
0.570000 1.000000 0.675000
0.845000 1.000000 0.675000
1.000000 1.000000 0.675000
0.020000 0.000000 0.900000
0.295000 0.000000 0.900000
0.570000 0.000000 0.900000
0.845000 0.000000 0.900000
1.000000 0.000000 0.900000
0.020000 0.257500 0.900000
0.295000 0.257500 0.900000
0.570000 0.257500 0.900000
0.845000 0.257500 0.900000
1.000000 0.257500 0.900000
0.020000 0.515000 0.900000
0.295000 0.515000 0.900000
0.570000 0.515000 0.900000
0.845000 0.515000 0.900000
1.000000 0.515000 0.900000
0.020000 0.772500 0.900000
0.295000 0.772500 0.900000
0.570000 0.772500 0.900000
0.845000 0.772500 0.900000
1.000000 0.772500 0.900000
0.020000 1.000000 0.900000
0.295000 1.000000 0.900000
0.570000 1.000000 0.900000
0.845000 1.000000 0.900000
1.000000 1.000000 0.900000
